; generated by Slic3r 1.3.0 on 2021-12-29 at 00:23:07

; external perimeters extrusion width = 0.55mm (4.37mm^3/s)
; perimeters extrusion width = 0.70mm (11.44mm^3/s)
; infill extrusion width = 0.62mm (13.45mm^3/s)
; solid infill extrusion width = 0.70mm (3.81mm^3/s)
; top infill extrusion width = 0.70mm (2.86mm^3/s)

M107
M104 S200 ; set temperature
G28 ; home all axes
G1 Z5 F5000 ; lift nozzle

; Filament gcode

M109 S200 ; set temperature and wait for it to be reached
G21 ; set units to millimeters
G90 ; use absolute coordinates
M82 ; use absolute distances for extrusion
G92 E0
G1 Z0.350 F7800.000
G1 E-2.00000 F2400.00000
G92 E0
G1 X71.068 Y86.674 F7800.000
G1 E2.00000 F2400.00000
G1 F1800
G1 X73.892 Y85.795 E2.09151
G1 X93.392 Y84.295 E2.69665
G1 X93.900 Y84.275 E2.71238
G1 X104.600 Y84.275 E3.04345
G1 X107.563 Y84.975 E3.13764
G1 X113.563 Y87.975 E3.34520
G1 X115.285 Y89.215 E3.41087
G1 X118.285 Y92.215 E3.54214
G1 X119.601 Y94.093 E3.61311
G1 X120.225 Y96.900 E3.70206
G1 X120.225 Y101.600 E3.84749
G1 X119.525 Y104.563 E3.94168
G1 X118.025 Y107.563 E4.04546
G1 X115.775 Y110.112 E4.15068
G1 X111.275 Y113.112 E4.31803
G1 X109.175 Y114.035 E4.38899
G1 X107.600 Y114.225 E4.43808
G1 X77.400 Y114.225 E5.37251
G1 X74.437 Y113.525 E5.46670
G1 X71.437 Y112.025 E5.57048
G1 X69.594 Y110.660 E5.64144
G1 X68.328 Y108.748 E5.71240
G1 X67.775 Y106.100 E5.79611
G1 X67.775 Y92.400 E6.22001
G1 X68.172 Y90.141 E6.29097
G1 X69.315 Y88.153 E6.36193
G1 X71.011 Y86.722 E6.43058
G1 E4.43058 F2400.00000
G92 E0
G1 X106.000 Y104.500 F7800.000
G1 E2.00000 F2400.00000
G1 F1800
G1 X106.000 Y106.000 E2.04641
G1 X79.000 Y106.000 E2.88184
G1 X79.000 Y104.500 E2.92825
G1 X76.000 Y104.500 E3.02108
G1 X76.000 Y94.000 E3.34597
G1 X95.500 Y94.000 E3.94933
G1 X95.500 Y92.500 E3.99574
G1 X103.000 Y92.500 E4.22782
G1 X103.000 Y94.000 E4.27423
G1 X106.000 Y94.000 E4.36705
G1 X106.000 Y95.500 E4.41346
G1 X109.000 Y95.500 E4.50629
G1 X109.000 Y97.000 E4.55270
G1 X110.500 Y97.000 E4.59911
G1 X110.500 Y98.500 E4.64552
G1 X112.000 Y98.500 E4.69194
G1 X112.000 Y100.000 E4.73836
G1 X110.500 Y100.000 E4.78477
G1 X110.500 Y103.000 E4.87760
G1 X107.500 Y103.000 E4.97042
G1 X107.500 Y104.500 E5.01683
G1 X106.075 Y104.500 E5.06092
G1 X106.625 Y105.125 F7800.000
G1 F1800
G1 X106.625 Y106.625 E5.10734
G1 X78.375 Y106.625 E5.98144
G1 X78.375 Y105.125 E6.02785
G1 X75.375 Y105.125 E6.12067
G1 X75.375 Y93.375 E6.48424
G1 X94.875 Y93.375 E7.08759
G1 X94.875 Y91.875 E7.13401
G1 X103.625 Y91.875 E7.40475
G1 X103.625 Y93.375 E7.45116
G1 X106.625 Y93.375 E7.54399
G1 X106.625 Y94.875 E7.59040
G1 X109.625 Y94.875 E7.68322
G1 X109.625 Y96.375 E7.72963
G1 X111.125 Y96.375 E7.77605
G1 X111.125 Y97.875 E7.82246
G1 X112.625 Y97.875 E7.86887
G1 X112.625 Y100.625 E7.95397
G1 X111.125 Y100.625 E8.00038
G1 X111.125 Y103.625 E8.09320
G1 X108.125 Y103.625 E8.18603
G1 X108.125 Y105.125 E8.23244
G1 X106.700 Y105.125 E8.27653
G1 X107.250 Y105.750 F7800.000
G1 F1800
G1 X107.250 Y107.250 E8.32294
G1 X77.750 Y107.250 E9.23571
G1 X77.750 Y105.750 E9.28212
G1 X74.750 Y105.750 E9.37495
G1 X74.750 Y92.750 E9.77718
G1 X94.250 Y92.750 E10.38054
G1 X94.250 Y91.250 E10.42695
G1 X104.250 Y91.250 E10.73636
G1 X104.250 Y92.750 E10.78278
G1 X107.250 Y92.750 E10.87560
G1 X107.250 Y94.250 E10.92201
G1 X110.250 Y94.250 E11.01484
G1 X110.250 Y95.750 E11.06125
G1 X111.750 Y95.750 E11.10766
G1 X111.750 Y97.250 E11.15407
G1 X113.250 Y97.250 E11.20048
G1 X113.250 Y101.250 E11.32425
G1 X111.750 Y101.250 E11.37066
G1 X111.750 Y104.250 E11.46348
G1 X108.750 Y104.250 E11.55631
G1 X108.750 Y105.750 E11.60272
G1 X107.325 Y105.750 E11.64681
G1 X106.767 Y105.879 F7800.000
G1 X106.350 Y104.118 F7800.000
G1 F1800
G1 X107.118 Y103.350 E11.68074
G1 X107.118 Y102.458 E11.70856
G1 E9.70856 F2400.00000
G92 E0
G1 X105.618 Y103.958 F7800.000
G1 E2.00000 F2400.00000
G1 F1800
G1 X105.618 Y104.850 E2.02782
G1 X104.850 Y105.618 E2.06175
G1 E0.06175 F2400.00000
G92 E0
G1 X109.632 Y102.618 F7800.000
G1 E2.00000 F2400.00000
G1 F1800
G1 X110.118 Y102.132 E2.02146
G1 X110.118 Y101.241 E2.04927
G1 X108.741 Y102.618 E2.11007
G1 X107.850 Y102.618 E2.13789
G1 X110.118 Y100.350 E2.23802
G1 X110.118 Y99.458 E2.26583
G1 X106.958 Y102.618 E2.40531
G1 X106.632 Y102.618 E2.41548
G1 X106.632 Y102.944 E2.42564
G1 X105.458 Y104.118 E2.47746
G1 X105.132 Y104.118 E2.48763
G1 X105.132 Y104.444 E2.49780
G1 X103.958 Y105.618 E2.54962
G1 X103.067 Y105.618 E2.57744
G1 X110.118 Y98.567 E2.88865
G1 X110.118 Y97.676 E2.91646
G1 X102.176 Y105.618 E3.26701
G1 X101.284 Y105.618 E3.29483
G1 X109.521 Y97.382 E3.65835
G1 X108.630 Y97.382 E3.68617
G1 X100.393 Y105.618 E4.04969
G1 X99.502 Y105.618 E4.07750
G1 X108.618 Y96.502 E4.47987
G1 X108.618 Y95.882 E4.49921
G1 X108.347 Y95.882 E4.50768
G1 X98.610 Y105.618 E4.93740
G1 X97.719 Y105.618 E4.96522
G1 X107.456 Y95.882 E5.39494
G1 X106.564 Y95.882 E5.42276
G1 X96.828 Y105.618 E5.85248
G1 X95.936 Y105.618 E5.88030
G1 X105.673 Y95.882 E6.31002
G1 X105.618 Y95.882 E6.31172
G1 X105.618 Y95.045 E6.33783
G1 X95.045 Y105.618 E6.80448
G1 X94.154 Y105.618 E6.83230
G1 X105.390 Y94.382 E7.32822
G1 X104.499 Y94.382 E7.35604
G1 X93.262 Y105.618 E7.85196
G1 X92.371 Y105.618 E7.87978
G1 X103.608 Y94.382 E8.37570
G1 X102.716 Y94.382 E8.40352
G1 X91.480 Y105.618 E8.89944
G1 X90.588 Y105.618 E8.92725
G1 X102.618 Y93.588 E9.45819
G1 X102.618 Y92.882 E9.48024
G1 X102.434 Y92.882 E9.48601
G1 X89.697 Y105.618 E10.04813
G1 X88.806 Y105.618 E10.07595
G1 X101.542 Y92.882 E10.63807
G1 X100.651 Y92.882 E10.66589
G1 X87.914 Y105.618 E11.22801
G1 X87.023 Y105.618 E11.25583
G1 X99.760 Y92.882 E11.81795
G1 X98.868 Y92.882 E11.84577
G1 X86.132 Y105.618 E12.40789
G1 X85.240 Y105.618 E12.43571
G1 X97.977 Y92.882 E12.99783
G1 X97.086 Y92.882 E13.02565
G1 X95.882 Y94.086 E13.07879
G1 X95.882 Y93.368 E13.10120
G1 X96.600 Y93.368 E13.12361
G1 E11.12361 F2400.00000
G92 E0
G1 X109.632 Y99.944 F7800.000
G1 E2.00000 F2400.00000
G1 F1800
G1 X109.632 Y99.618 E2.01017
G1 X109.958 Y99.618 E2.02034
G1 X110.695 Y98.882 E2.05286
G1 X111.586 Y98.882 E2.08067
G1 X110.850 Y99.618 E2.11319
G1 E0.11319 F2400.00000
G92 E0
G1 X84.349 Y105.618 F7800.000
G1 E2.00000 F2400.00000
G1 F1800
G1 X95.586 Y94.382 E2.49592
G1 X94.694 Y94.382 E2.52374
G1 X83.458 Y105.618 E3.01966
G1 X82.566 Y105.618 E3.04748
G1 X93.803 Y94.382 E3.54340
G1 X92.912 Y94.382 E3.57122
G1 X81.675 Y105.618 E4.06714
G1 X80.784 Y105.618 E4.09496
G1 X92.020 Y94.382 E4.59088
G1 X91.129 Y94.382 E4.61870
G1 X79.892 Y105.618 E5.11462
G1 X79.382 Y105.618 E5.13056
G1 X79.382 Y105.238 E5.14243
G1 X90.238 Y94.382 E5.62156
G1 X89.346 Y94.382 E5.64938
G1 X79.382 Y104.346 E6.08916
G1 X79.382 Y104.118 E6.09628
G1 X78.718 Y104.118 E6.11698
G1 X88.455 Y94.382 E6.54670
G1 X87.564 Y94.382 E6.57452
G1 X77.827 Y104.118 E7.00424
G1 X76.936 Y104.118 E7.03206
G1 X86.672 Y94.382 E7.46178
G1 X85.781 Y94.382 E7.48959
G1 X76.382 Y103.781 E7.90443
G1 X76.382 Y102.890 E7.93225
G1 X84.890 Y94.382 E8.30775
G1 X83.998 Y94.382 E8.33556
G1 X76.382 Y101.998 E8.67173
G1 X76.382 Y101.107 E8.69954
G1 X83.107 Y94.382 E8.99637
G1 X82.216 Y94.382 E9.02418
G1 X76.382 Y100.216 E9.28167
G1 X76.382 Y99.324 E9.30949
G1 X81.325 Y94.382 E9.52764
G1 X80.433 Y94.382 E9.55545
G1 X76.382 Y98.433 E9.73426
G1 X76.382 Y97.542 E9.76208
G1 X79.542 Y94.382 E9.90155
G1 X78.651 Y94.382 E9.92937
G1 X76.382 Y96.651 E10.02950
G1 X76.382 Y95.759 E10.05732
G1 X77.759 Y94.382 E10.11812
G1 X76.868 Y94.382 E10.14593
G1 X76.382 Y94.868 E10.16738
G1 Z0.650 F7800.000
G1 X106.129 Y104.629 F7800.000
G1 F3600
G1 X106.129 Y106.129 E10.20785
G1 X78.871 Y106.129 E10.94316
G1 X78.871 Y104.629 E10.98363
G1 X75.871 Y104.629 E11.06456
G1 X75.871 Y93.871 E11.35476
G1 X95.371 Y93.871 E11.88080
G1 X95.371 Y92.371 E11.92126
G1 X103.129 Y92.371 E12.13054
G1 X103.129 Y93.871 E12.17100
G1 X106.129 Y93.871 E12.25193
G1 X106.129 Y95.371 E12.29240
G1 X109.129 Y95.371 E12.37332
G1 X109.129 Y96.871 E12.41379
G1 X110.629 Y96.871 E12.45425
G1 X110.629 Y98.371 E12.49472
G1 X112.129 Y98.371 E12.53518
G1 X112.129 Y100.129 E12.58260
G1 X110.629 Y100.129 E12.62306
G1 X110.629 Y103.129 E12.70399
G1 X107.629 Y103.129 E12.78492
G1 X107.629 Y104.629 E12.82538
G1 X106.204 Y104.629 E12.86383
G1 X106.764 Y105.264 F7800.000
G1 F3600
G1 X106.764 Y106.764 E12.90429
G1 X78.236 Y106.764 E13.67390
G1 X78.236 Y105.264 E13.71436
G1 X75.236 Y105.264 E13.79529
G1 X75.236 Y93.236 E14.11979
G1 X94.736 Y93.236 E14.64583
G1 X94.736 Y91.736 E14.68629
G1 X103.764 Y91.736 E14.92986
G1 X103.764 Y93.236 E14.97032
G1 X106.764 Y93.236 E15.05125
G1 X106.764 Y94.736 E15.09172
G1 X109.764 Y94.736 E15.17265
G1 X109.764 Y96.236 E15.21311
G1 X111.264 Y96.236 E15.25358
G1 X111.264 Y97.736 E15.29404
G1 X112.764 Y97.736 E15.33451
G1 X112.764 Y100.764 E15.41621
G1 X111.264 Y100.764 E15.45668
G1 X111.264 Y103.764 E15.53761
G1 X108.264 Y103.764 E15.61854
G1 X108.264 Y105.264 E15.65900
G1 X106.839 Y105.264 E15.69744
G1 X107.325 Y105.825 F7800.000
G1 F1800
G1 X107.325 Y107.325 E15.72836
G1 X77.675 Y107.325 E16.33945
G1 X77.675 Y105.825 E16.37037
G1 X74.675 Y105.825 E16.43220
G1 X74.675 Y92.675 E16.70323
G1 X94.175 Y92.675 E17.10513
G1 X94.175 Y91.175 E17.13604
G1 X104.325 Y91.175 E17.34524
G1 X104.325 Y92.675 E17.37615
G1 X107.325 Y92.675 E17.43798
G1 X107.325 Y94.175 E17.46890
G1 X110.325 Y94.175 E17.53073
G1 X110.325 Y95.675 E17.56165
G1 X111.825 Y95.675 E17.59256
G1 X111.825 Y97.175 E17.62348
G1 X113.325 Y97.175 E17.65439
G1 X113.325 Y101.325 E17.73993
G1 X111.825 Y101.325 E17.77084
G1 X111.825 Y104.325 E17.83267
G1 X108.825 Y104.325 E17.89450
G1 X108.825 Y105.825 E17.92542
G1 X107.400 Y105.825 E17.95479
G1 X106.842 Y105.954 F7800.000
G1 X110.832 Y99.254 F7800.000
G1 F1200
G1 X110.240 Y99.254 E17.97091
G1 X110.240 Y98.663 E17.98704
G1 X108.837 Y97.260 E18.04113
G1 X109.746 Y97.260 E18.06590
G1 X110.240 Y97.754 E18.08497
G1 X109.332 Y97.754 F7800.000
G1 F1200
G1 X108.740 Y97.754 E18.10109
G1 X108.740 Y97.163 E18.11721
G1 X107.337 Y95.760 E18.17131
G1 X108.246 Y95.760 E18.19607
G1 X108.740 Y96.254 E18.21514
G1 X106.015 Y96.254 F7800.000
G1 F1200
G1 X105.740 Y96.254 E18.22263
G1 X105.740 Y95.980 E18.23011
G1 X104.020 Y94.260 E18.29642
G1 X104.929 Y94.260 E18.32119
G1 X105.740 Y95.071 E18.35248
G1 X103.112 Y94.260 F7800.000
G1 F1200
G1 X110.240 Y101.388 E18.62732
G1 X110.240 Y100.480 E18.65209
G1 X105.520 Y95.760 E18.83407
G1 X106.429 Y95.760 E18.85884
G1 X110.410 Y99.740 E19.01232
G1 X111.318 Y99.740 E19.03709
G1 X110.337 Y98.760 E19.07490
G1 X111.246 Y98.760 E19.09967
G1 X111.740 Y99.254 E19.11874
G1 X102.740 Y93.888 F7800.000
G1 F1200
G1 X101.612 Y92.760 E19.16225
G1 X100.704 Y92.760 E19.18701
G1 X110.240 Y102.296 E19.55472
G1 X110.240 Y102.740 E19.56682
G1 X109.776 Y102.740 E19.57949
G1 X99.795 Y92.760 E19.96431
G1 X98.887 Y92.760 E19.98908
G1 X108.867 Y102.740 E20.37390
G1 X107.959 Y102.740 E20.39866
G1 X97.978 Y92.760 E20.78348
G1 X97.070 Y92.760 E20.80825
G1 X107.240 Y102.930 E21.20040
G1 X107.240 Y103.839 E21.22516
G1 X96.161 Y92.760 E21.65234
G1 X95.760 Y92.760 E21.66328
G1 X95.760 Y93.267 E21.67710
G1 X106.733 Y104.240 E22.10021
G1 X105.825 Y104.240 E22.12498
G1 X95.760 Y94.175 E22.51307
G1 X95.760 Y94.260 E22.51537
G1 X94.936 Y94.260 E22.53783
G1 X105.740 Y105.064 E22.95442
G1 X105.740 Y105.740 E22.97285
G1 X105.508 Y105.740 E22.97919
G1 X94.027 Y94.260 E23.42184
G1 X93.119 Y94.260 E23.44661
G1 X104.600 Y105.740 E23.88926
G1 X103.691 Y105.740 E23.91403
G1 X92.210 Y94.260 E24.35668
G1 X91.302 Y94.260 E24.38145
G1 X102.783 Y105.740 E24.82411
G1 X101.874 Y105.740 E24.84888
G1 X90.393 Y94.260 E25.29153
G1 X89.485 Y94.260 E25.31630
G1 X100.966 Y105.740 E25.75895
G1 X100.057 Y105.740 E25.78372
G1 X88.577 Y94.260 E26.22637
G1 X87.668 Y94.260 E26.25114
G1 X99.149 Y105.740 E26.69380
G1 X98.240 Y105.740 E26.71857
G1 X86.760 Y94.260 E27.16122
G1 X85.851 Y94.260 E27.18599
G1 X97.332 Y105.740 E27.62864
G1 X96.423 Y105.740 E27.65341
G1 X84.943 Y94.260 E28.09606
G1 X84.034 Y94.260 E28.12083
G1 X95.515 Y105.740 E28.56349
G1 X94.607 Y105.740 E28.58826
G1 X83.126 Y94.260 E29.03091
G1 X82.217 Y94.260 E29.05568
G1 X93.698 Y105.740 E29.49833
G1 X92.790 Y105.740 E29.52310
G1 X81.309 Y94.260 E29.96575
G1 X80.400 Y94.260 E29.99052
G1 X91.881 Y105.740 E30.43318
G1 X90.973 Y105.740 E30.45795
G1 X79.492 Y94.260 E30.90060
G1 X78.583 Y94.260 E30.92537
G1 X90.064 Y105.740 E31.36802
G1 X89.156 Y105.740 E31.39279
G1 X77.675 Y94.260 E31.83544
G1 X76.767 Y94.260 E31.86021
G1 X88.247 Y105.740 E32.30287
G1 X87.339 Y105.740 E32.32764
G1 X76.260 Y94.661 E32.75481
G1 X76.260 Y95.570 E32.77958
G1 X86.430 Y105.740 E33.17172
G1 X85.522 Y105.740 E33.19649
G1 X76.260 Y96.478 E33.55361
G1 X76.260 Y97.387 E33.57838
G1 X84.613 Y105.740 E33.90047
G1 X83.705 Y105.740 E33.92524
G1 X76.260 Y98.295 E34.21230
G1 X76.260 Y99.203 E34.23707
G1 X82.797 Y105.740 E34.48911
G1 X81.888 Y105.740 E34.51387
G1 X76.260 Y100.112 E34.73088
G1 X76.260 Y101.020 E34.75565
G1 X79.480 Y104.240 E34.87980
G1 X78.571 Y104.240 E34.90457
G1 X76.260 Y101.929 E34.99369
G1 X76.260 Y102.837 E35.01846
G1 X77.663 Y104.240 E35.07256
G1 X76.754 Y104.240 E35.09732
G1 X76.260 Y103.746 E35.11639
G1 X79.754 Y105.423 F7800.000
G1 F1200
G1 X79.754 Y105.740 E35.12504
G1 X80.071 Y105.740 E35.13368
G1 X79.260 Y104.929 E35.16497
G1 X79.260 Y104.020 E35.18974
G1 X80.980 Y105.740 E35.25605
G1 Z0.950 F7800.000
G1 X106.129 Y104.629 F7800.000
G1 F3600
G1 X106.129 Y106.129 E35.29652
G1 X78.871 Y106.129 E36.03183
G1 X78.871 Y104.629 E36.07229
G1 X75.871 Y104.629 E36.15322
G1 X75.871 Y93.871 E36.44342
G1 X95.371 Y93.871 E36.96947
G1 X95.371 Y92.371 E37.00993
G1 X103.129 Y92.371 E37.21920
G1 X103.129 Y93.871 E37.25967
G1 X106.129 Y93.871 E37.34060
G1 X106.129 Y95.371 E37.38106
G1 X109.129 Y95.371 E37.46199
G1 X109.129 Y96.871 E37.50246
G1 X110.629 Y96.871 E37.54292
G1 X110.629 Y98.371 E37.58339
G1 X112.129 Y98.371 E37.62385
G1 X112.129 Y100.129 E37.67126
G1 X110.629 Y100.129 E37.71173
G1 X110.629 Y103.129 E37.79266
G1 X107.629 Y103.129 E37.87359
G1 X107.629 Y104.629 E37.91405
G1 X106.204 Y104.629 E37.95249
G1 X106.764 Y105.264 F7800.000
G1 F3600
G1 X106.764 Y106.764 E37.99296
G1 X78.236 Y106.764 E38.76256
G1 X78.236 Y105.264 E38.80303
G1 X75.236 Y105.264 E38.88396
G1 X75.236 Y93.236 E39.20845
G1 X94.736 Y93.236 E39.73450
G1 X94.736 Y91.736 E39.77496
G1 X103.764 Y91.736 E40.01853
G1 X103.764 Y93.236 E40.05899
G1 X106.764 Y93.236 E40.13992
G1 X106.764 Y94.736 E40.18038
G1 X109.764 Y94.736 E40.26131
G1 X109.764 Y96.236 E40.30178
G1 X111.264 Y96.236 E40.34224
G1 X111.264 Y97.736 E40.38271
G1 X112.764 Y97.736 E40.42317
G1 X112.764 Y100.764 E40.50488
G1 X111.264 Y100.764 E40.54534
G1 X111.264 Y103.764 E40.62627
G1 X108.264 Y103.764 E40.70720
G1 X108.264 Y105.264 E40.74767
G1 X106.839 Y105.264 E40.78611
G1 X107.325 Y105.825 F7800.000
G1 F1800
G1 X107.325 Y107.325 E40.81702
G1 X77.675 Y107.325 E41.42812
G1 X77.675 Y105.825 E41.45904
G1 X74.675 Y105.825 E41.52087
G1 X74.675 Y92.675 E41.79189
G1 X94.175 Y92.675 E42.19379
G1 X94.175 Y91.175 E42.22471
G1 X104.325 Y91.175 E42.43390
G1 X104.325 Y92.675 E42.46482
G1 X107.325 Y92.675 E42.52665
G1 X107.325 Y94.175 E42.55757
G1 X110.325 Y94.175 E42.61940
G1 X110.325 Y95.675 E42.65031
G1 X111.825 Y95.675 E42.68123
G1 X111.825 Y97.175 E42.71214
G1 X113.325 Y97.175 E42.74306
G1 X113.325 Y101.325 E42.82859
G1 X111.825 Y101.325 E42.85951
G1 X111.825 Y104.325 E42.92134
G1 X108.825 Y104.325 E42.98317
G1 X108.825 Y105.825 E43.01409
G1 X107.400 Y105.825 E43.04346
G1 X106.842 Y105.954 F7800.000
G1 X106.443 Y104.240 F7800.000
G1 F1200
G1 X107.240 Y103.443 E43.07398
G1 X107.240 Y102.541 E43.09837
G1 X105.740 Y104.041 F7800.000
G1 F1200
G1 X105.740 Y104.943 E43.12276
G1 X104.943 Y105.740 E43.15329
G1 X109.746 Y102.740 F7800.000
G1 F1200
G1 X110.240 Y102.246 E43.17221
G1 X110.240 Y101.344 E43.19660
G1 X108.844 Y102.740 E43.25002
G1 X107.943 Y102.740 E43.27442
G1 X110.240 Y100.443 E43.36234
G1 X110.240 Y99.541 E43.38673
G1 X107.041 Y102.740 E43.50915
G1 X106.746 Y102.740 E43.51713
G1 X106.746 Y103.036 E43.52512
G1 X105.541 Y104.240 E43.57122
G1 X105.246 Y104.240 E43.57920
