; generated by Slic3r 1.3.0 on 2021-12-29 at 00:23:16

; external perimeters extrusion width = 0.55mm (4.37mm^3/s)
; perimeters extrusion width = 0.70mm (11.44mm^3/s)
; infill extrusion width = 0.62mm (13.45mm^3/s)
; solid infill extrusion width = 0.70mm (3.81mm^3/s)
; top infill extrusion width = 0.70mm (2.86mm^3/s)

M107
M104 S200 ; set temperature
G28 ; home all axes
G1 Z5 F5000 ; lift nozzle

; Filament gcode

M109 S200 ; set temperature and wait for it to be reached
G21 ; set units to millimeters
G90 ; use absolute coordinates
M82 ; use absolute distances for extrusion
G92 E0
G1 Z0.350 F7800.000
G1 E-2.00000 F2400.00000
G92 E0
G1 X82.215 Y80.215 F7800.000
G1 E2.00000 F2400.00000
G1 F1800
G1 X84.440 Y78.749 E2.08243
G1 X94.440 Y74.749 E2.41568
G1 X96.900 Y74.275 E2.49321
G1 X101.100 Y74.275 E2.62316
G1 X102.707 Y74.473 E2.67325
G1 X110.707 Y76.473 E2.92840
G1 X111.195 Y76.615 E2.94413
G1 X117.195 Y78.615 E3.13982
G1 X119.785 Y80.215 E3.23401
G1 X125.785 Y86.215 E3.49656
G1 X127.101 Y88.093 E3.56752
G1 X127.725 Y90.900 E3.65648
G1 X127.725 Y99.100 E3.91020
G1 X127.328 Y101.359 E3.98116
G1 X125.785 Y103.785 E4.07012
G1 X117.785 Y111.785 E4.42018
G1 X115.195 Y113.385 E4.51437
G1 X109.195 Y115.385 E4.71006
G1 X107.100 Y115.725 E4.77573
G1 X92.900 Y115.725 E5.21510
G1 X90.641 Y115.328 E5.28606
G1 X88.215 Y113.785 E5.37502
G1 X78.215 Y103.785 E5.81259
G1 X76.899 Y101.907 E5.88356
G1 X76.275 Y99.100 E5.97251
G1 X76.275 Y96.900 E6.04058
G1 X76.404 Y95.601 E6.08098
G1 X78.404 Y85.601 E6.39652
G1 X79.236 Y83.464 E6.46748
G1 X80.215 Y82.215 E6.51658
G1 X82.162 Y80.269 E6.60177
G1 E4.60177 F2400.00000
G92 E0
G1 X111.500 Y103.500 F7800.000
G1 E2.00000 F2400.00000
G1 F1800
G1 X111.500 Y105.500 E2.06188
G1 X105.500 Y105.500 E2.24753
G1 X105.500 Y107.500 E2.30941
G1 X94.500 Y107.500 E2.64978
G1 X94.500 Y103.500 E2.77355
G1 X92.500 Y103.500 E2.83543
G1 X92.500 Y101.500 E2.89731
G1 X88.500 Y101.500 E3.02108
G1 X88.500 Y99.500 E3.08296
G1 X86.500 Y99.500 E3.14484
G1 X86.500 Y96.500 E3.23768
G1 X88.500 Y96.500 E3.29956
G1 X88.500 Y89.500 E3.51614
G1 X86.500 Y89.500 E3.57802
G1 X86.500 Y88.500 E3.60898
G1 X88.500 Y88.500 E3.67086
G1 X88.500 Y86.500 E3.73274
G1 X96.500 Y86.500 E3.98027
G1 X96.500 Y84.500 E4.04215
G1 X98.500 Y84.500 E4.10404
G1 X98.500 Y82.500 E4.16592
G1 X99.500 Y82.500 E4.19687
G1 X99.500 Y84.500 E4.25876
G1 X107.500 Y84.500 E4.50629
G1 X107.500 Y86.500 E4.56817
G1 X113.500 Y86.500 E4.75382
G1 X113.500 Y90.500 E4.87758
G1 X115.500 Y90.500 E4.93947
G1 X115.500 Y92.500 E5.00135
G1 X119.500 Y92.500 E5.12511
G1 X119.500 Y97.500 E5.27983
G1 X117.500 Y97.500 E5.34172
G1 X117.500 Y99.500 E5.40360
G1 X113.500 Y99.500 E5.52737
G1 X113.500 Y103.500 E5.65113
G1 X111.575 Y103.500 E5.71069
G1 X112.125 Y104.125 F7800.000
G1 F1800
G1 X112.125 Y106.125 E5.77257
G1 X106.125 Y106.125 E5.95822
G1 X106.125 Y108.125 E6.02011
G1 X93.875 Y108.125 E6.39914
G1 X93.875 Y104.125 E6.52291
G1 X91.875 Y104.125 E6.58479
G1 X91.875 Y102.125 E6.64667
G1 X87.875 Y102.125 E6.77044
G1 X87.875 Y100.125 E6.83232
G1 X85.875 Y100.125 E6.89420
G1 X85.875 Y95.875 E7.02571
G1 X87.875 Y95.875 E7.08759
G1 X87.875 Y90.125 E7.26550
G1 X85.875 Y90.125 E7.32738
G1 X85.875 Y87.875 E7.39701
G1 X87.875 Y87.875 E7.45889
G1 X87.875 Y85.875 E7.52077
G1 X95.875 Y85.875 E7.76830
G1 X95.875 Y83.875 E7.83019
G1 X97.875 Y83.875 E7.89207
G1 X97.875 Y81.875 E7.95395
G1 X100.125 Y81.875 E8.02358
G1 X100.125 Y83.875 E8.08546
G1 X108.125 Y83.875 E8.33299
G1 X108.125 Y85.875 E8.39487
G1 X114.125 Y85.875 E8.58052
G1 X114.125 Y89.875 E8.70429
G1 X116.125 Y89.875 E8.76617
G1 X116.125 Y91.875 E8.82805
G1 X120.125 Y91.875 E8.95182
G1 X120.125 Y98.125 E9.14521
G1 X118.125 Y98.125 E9.20709
G1 X118.125 Y100.125 E9.26897
G1 X114.125 Y100.125 E9.39274
G1 X114.125 Y104.125 E9.51650
G1 X112.200 Y104.125 E9.57606
G1 X112.750 Y104.750 F7800.000
G1 F1800
G1 X112.750 Y106.750 E9.63795
G1 X106.750 Y106.750 E9.82359
G1 X106.750 Y108.750 E9.88548
G1 X93.250 Y108.750 E10.30318
G1 X93.250 Y104.750 E10.42695
G1 X91.250 Y104.750 E10.48883
G1 X91.250 Y102.750 E10.55072
G1 X87.250 Y102.750 E10.67448
G1 X87.250 Y100.750 E10.73636
G1 X85.250 Y100.750 E10.79825
G1 X85.250 Y98.750 E10.86013
G1 X83.250 Y98.750 E10.92201
G1 X83.250 Y97.250 E10.96842
G1 X85.250 Y97.250 E11.03031
G1 X85.250 Y95.250 E11.09219
G1 X87.250 Y95.250 E11.15407
G1 X87.250 Y90.750 E11.29331
G1 X85.250 Y90.750 E11.35519
G1 X85.250 Y87.250 E11.46348
G1 X87.250 Y87.250 E11.52537
G1 X87.250 Y85.250 E11.58725
G1 X95.250 Y85.250 E11.83478
G1 X95.250 Y83.250 E11.89666
G1 X97.250 Y83.250 E11.95855
G1 X97.250 Y81.250 E12.02043
G1 X100.750 Y81.250 E12.12872
G1 X100.750 Y83.250 E12.19061
G1 X108.750 Y83.250 E12.43814
G1 X108.750 Y85.250 E12.50002
G1 X114.750 Y85.250 E12.68567
G1 X114.750 Y89.250 E12.80943
G1 X116.750 Y89.250 E12.87131
G1 X116.750 Y91.250 E12.93320
G1 X120.750 Y91.250 E13.05696
G1 X120.750 Y98.750 E13.28902
G1 X118.750 Y98.750 E13.35090
G1 X118.750 Y100.750 E13.41279
G1 X114.750 Y100.750 E13.53655
G1 X114.750 Y104.750 E13.66032
G1 X112.825 Y104.750 E13.71988
G1 X112.284 Y104.930 F7800.000
G1 X112.632 Y103.118 F7800.000
G1 F1800
G1 X113.118 Y102.632 E13.74149
G1 X113.118 Y101.734 E13.76971
G1 X111.734 Y103.118 E13.83123
G1 X110.837 Y103.118 E13.85945
G1 X113.118 Y100.837 E13.96087
G1 X113.118 Y99.939 E13.98909
G1 X107.939 Y105.118 E14.21933
G1 X107.041 Y105.118 E14.24755
G1 X113.118 Y99.041 E14.51769
G1 E12.51769 F2400.00000
G92 E0
G1 X116.632 Y99.118 F7800.000
G1 E2.00000 F2400.00000
G1 F1800
G1 X117.118 Y98.632 E2.02161
G1 X117.118 Y97.734 E2.04983
G1 X115.734 Y99.118 E2.11135
G1 X114.837 Y99.118 E2.13957
G1 X117.118 Y96.837 E2.24099
G1 X118.632 Y97.118 F7800.000
G1 F1800
G1 X119.118 Y96.632 E2.26261
G1 X119.118 Y95.734 E2.29082
G1 X117.734 Y97.118 E2.35234
G1 X116.837 Y97.118 E2.38056
G1 X119.118 Y94.837 E2.48199
G1 X119.118 Y93.939 E2.51021
G1 X113.939 Y99.118 E2.74044
G1 X113.041 Y99.118 E2.76866
G1 X119.118 Y93.041 E3.03881
G1 X119.118 Y92.882 E3.04382
G1 X118.380 Y92.882 E3.06703
G1 X106.143 Y105.118 E3.61098
G1 X105.246 Y105.118 E3.63919
G1 X117.482 Y92.882 E4.18314
G1 X116.585 Y92.882 E4.21136
G1 X102.348 Y107.118 E4.84422
G1 X101.450 Y107.118 E4.87243
G1 X115.687 Y92.882 E5.50529
G1 X115.118 Y92.882 E5.52316
G1 X115.118 Y92.552 E5.53351
G1 X100.552 Y107.118 E6.18099
G1 X99.655 Y107.118 E6.20921
G1 X115.118 Y91.655 E6.89661
G1 X115.118 Y90.882 E6.92091
G1 X114.994 Y90.882 E6.92483
G1 X98.757 Y107.118 E7.64658
G1 X97.859 Y107.118 E7.67480
G1 X114.096 Y90.882 E8.39656
G1 X113.198 Y90.882 E8.42478
G1 X96.961 Y107.118 E9.14654
G1 X96.064 Y107.118 E9.17476
G1 X113.118 Y90.064 E9.93287
G1 X113.118 Y89.166 E9.96109
G1 X95.166 Y107.118 E10.75912
G1 X94.882 Y107.118 E10.76805
G1 X94.882 Y106.505 E10.78734
G1 X113.118 Y88.268 E11.59800
G1 X113.118 Y87.370 E11.62622
G1 X94.882 Y105.607 E12.43688
G1 X94.882 Y104.709 E12.46510
G1 X112.709 Y86.882 E13.25758
G1 X111.812 Y86.882 E13.28580
G1 X94.882 Y103.812 E14.03837
G1 X94.882 Y103.118 E14.06017
G1 X94.677 Y103.118 E14.06659
G1 X110.914 Y86.882 E14.78835
G1 X110.016 Y86.882 E14.81657
G1 X93.779 Y103.118 E15.53833
G1 X92.882 Y103.118 E15.56655
G1 X109.118 Y86.882 E16.28830
G1 X108.221 Y86.882 E16.31652
G1 X92.882 Y102.221 E16.99837
G1 X92.882 Y101.323 E17.02659
G1 X107.323 Y86.882 E17.66854
G1 X107.118 Y86.882 E17.67497
G1 X107.118 Y86.188 E17.69676
G1 X92.188 Y101.118 E18.36043
G1 X91.291 Y101.118 E18.38865
G1 X107.118 Y85.291 E19.09222
G1 X107.118 Y84.882 E19.10508
G1 X106.630 Y84.882 E19.12044
G1 X90.393 Y101.118 E19.84220
G1 X89.495 Y101.118 E19.87042
G1 X105.732 Y84.882 E20.59218
G1 X104.834 Y84.882 E20.62039
G1 X88.882 Y100.834 E21.32952
G1 X88.882 Y99.936 E21.35773
G1 X103.936 Y84.882 E22.02695
G1 X103.039 Y84.882 E22.05517
G1 X88.802 Y99.118 E22.68802
G1 X87.904 Y99.118 E22.71624
G1 X102.141 Y84.882 E23.34910
G1 X101.243 Y84.882 E23.37731
G1 X88.882 Y97.243 E23.92681
G1 X88.882 Y96.345 E23.95503
G1 X100.033 Y85.194 E24.45073
G1 X99.135 Y85.194 E24.47894
G1 X88.882 Y95.448 E24.93474
G1 X88.882 Y94.550 E24.96295
G1 X96.550 Y86.882 E25.30382
G1 X95.652 Y86.882 E25.33204
G1 X88.882 Y93.652 E25.63300
G1 X88.882 Y92.754 E25.66122
G1 X94.754 Y86.882 E25.92228
G1 X93.857 Y86.882 E25.95050
G1 X88.882 Y91.857 E26.17164
G1 X88.882 Y90.959 E26.19986
G1 X92.959 Y86.882 E26.38110
G1 X92.061 Y86.882 E26.40932
G1 X89.194 Y89.749 E26.53677
G1 X89.194 Y88.851 E26.56499
G1 X91.163 Y86.882 E26.65252
G1 X90.266 Y86.882 E26.68074
G1 X88.882 Y88.266 E26.74226
G1 X88.882 Y87.368 E26.77048
G1 X89.368 Y86.882 E26.79209
G1 E24.79209 F2400.00000
G92 E0
G1 X89.680 Y89.263 F7800.000
G1 E2.00000 F2400.00000
G1 F1800
G1 X89.680 Y89.570 E2.00965
G1 X89.373 Y89.570 E2.01930
G1 X88.882 Y90.061 E2.04115
G1 E0.04115 F2400.00000
G92 E0
G1 X87.448 Y96.882 F7800.000
G1 E2.00000 F2400.00000
G1 F1800
G1 X86.882 Y97.448 E2.02516
G1 X86.882 Y98.345 E2.05338
G1 X88.345 Y96.882 E2.11844
G1 X89.243 Y96.882 E2.14666
G1 X87.006 Y99.118 E2.24609
G1 E0.24609 F2400.00000
G92 E0
G1 X96.882 Y86.550 F7800.000
G1 E2.00000 F2400.00000
G1 F1800
G1 X98.430 Y85.001 E2.06885
G1 X98.430 Y84.882 E2.07260
G1 X97.652 Y84.882 E2.09706
G1 X96.882 Y85.652 E2.13131
G1 X96.882 Y85.368 E2.14025
G1 X97.166 Y85.368 E2.14919
G1 E0.14919 F2400.00000
G92 E0
G1 X99.570 Y85.657 F7800.000
G1 E2.00000 F2400.00000
G1 F1800
G1 X100.345 Y84.882 E2.03448
G1 E0.03448 F2400.00000
G92 E0
G1 X111.118 Y102.837 F7800.000
G1 E2.00000 F2400.00000
G1 F1800
G1 X108.837 Y105.118 E2.10143
G1 X109.734 Y105.118 E2.12964
G1 X111.118 Y103.734 E2.19116
G1 X111.118 Y104.632 E2.21938
G1 X110.632 Y105.118 E2.24099
G1 E0.24099 F2400.00000
G92 E0
G1 X104.143 Y107.118 F7800.000
G1 E2.00000 F2400.00000
G1 F1800
G1 X105.118 Y106.143 E2.04334
G1 X105.118 Y105.246 E2.07156
G1 X103.246 Y107.118 E2.15480
G1 X102.348 Y107.118 E2.18302
G1 E0.18302 F2400.00000
G92 E0
G1 X88.812 Y89.000 F7800.000
G1 E2.00000 F2400.00000
G1 F1800
G1 X86.812 Y89.000 E2.02975
G1 E0.02975 F2400.00000
G92 E0
G1 X85.562 Y98.000 F7800.000
G1 E2.00000 F2400.00000
G1 F1800
G1 X83.562 Y98.000 E2.07922
G1 E0.07922 F2400.00000
G92 E0
G1 X99.000 Y84.812 F7800.000
G1 E2.00000 F2400.00000
G1 F1800
G1 X99.000 Y82.812 E2.02975
G1 Z0.650 F7800.000
G1 X111.629 Y103.629 F7800.000
G1 F3600
G1 X111.629 Y105.629 E2.08371
G1 X105.629 Y105.629 E2.24557
G1 X105.629 Y107.629 E2.29952
G1 X94.371 Y107.629 E2.60321
G1 X94.371 Y103.629 E2.71111
G1 X92.371 Y103.629 E2.76507
G1 X92.371 Y101.629 E2.81902
G1 X88.371 Y101.629 E2.92693
G1 X88.371 Y99.629 E2.98088
G1 X86.371 Y99.629 E3.03483
G1 X86.371 Y96.371 E3.12271
G1 X88.371 Y96.371 E3.17666
G1 X88.371 Y89.629 E3.35855
G1 X86.371 Y89.629 E3.41250
G1 X86.371 Y88.371 E3.44643
G1 X88.371 Y88.371 E3.50038
G1 X88.371 Y86.371 E3.55433
G1 X96.371 Y86.371 E3.77014
G1 X96.371 Y84.371 E3.82410
G1 X98.371 Y84.371 E3.87805
G1 X98.371 Y82.371 E3.93200
G1 X99.629 Y82.371 E3.96593
G1 X99.629 Y84.371 E4.01988
G1 X107.629 Y84.371 E4.23569
G1 X107.629 Y86.371 E4.28965
G1 X113.629 Y86.371 E4.45151
G1 X113.629 Y90.371 E4.55941
G1 X115.629 Y90.371 E4.61336
G1 X115.629 Y92.371 E4.66732
G1 X119.629 Y92.371 E4.77522
G1 X119.629 Y97.629 E4.91705
G1 X117.629 Y97.629 E4.97101
G1 X117.629 Y99.629 E5.02496
G1 X113.629 Y99.629 E5.13287
G1 X113.629 Y103.629 E5.24077
G1 X111.704 Y103.629 E5.29270
G1 X112.264 Y104.264 F7800.000
G1 F3600
G1 X112.264 Y106.264 E5.34665
G1 X106.264 Y106.264 E5.50851
G1 X106.264 Y108.264 E5.56247
G1 X93.736 Y108.264 E5.90045
G1 X93.736 Y104.264 E6.00836
G1 X91.736 Y104.264 E6.06231
G1 X91.736 Y102.264 E6.11626
G1 X87.736 Y102.264 E6.22417
G1 X87.736 Y100.264 E6.27812
G1 X85.736 Y100.264 E6.33207
G1 X85.736 Y98.264 E6.38603
G1 X83.736 Y98.264 E6.43998
G1 X83.736 Y97.736 E6.45424
G1 X85.736 Y97.736 E6.50820
G1 X85.736 Y95.736 E6.56215
G1 X87.736 Y95.736 E6.61610
G1 X87.736 Y90.264 E6.76370
G1 X85.736 Y90.264 E6.81765
G1 X85.736 Y87.736 E6.88587
G1 X87.736 Y87.736 E6.93982
G1 X87.736 Y85.736 E6.99377
G1 X95.736 Y85.736 E7.20959
G1 X95.736 Y83.736 E7.26354
G1 X97.736 Y83.736 E7.31749
G1 X97.736 Y81.736 E7.37145
G1 X100.264 Y81.736 E7.43966
G1 X100.264 Y83.736 E7.49362
G1 X108.264 Y83.736 E7.70943
G1 X108.264 Y85.736 E7.76338
G1 X114.264 Y85.736 E7.92524
G1 X114.264 Y89.736 E8.03315
G1 X116.264 Y89.736 E8.08710
G1 X116.264 Y91.736 E8.14105
G1 X120.264 Y91.736 E8.24896
G1 X120.264 Y98.264 E8.42508
G1 X118.264 Y98.264 E8.47904
G1 X118.264 Y100.264 E8.53299
G1 X114.264 Y100.264 E8.64089
G1 X114.264 Y104.264 E8.74880
G1 X112.339 Y104.264 E8.80073
G1 X112.825 Y104.825 F7800.000
G1 F1800
G1 X112.825 Y106.825 E8.84195
G1 X106.825 Y106.825 E8.96561
G1 X106.825 Y108.825 E9.00683
G1 X93.175 Y108.825 E9.28816
G1 X93.175 Y104.825 E9.37061
G1 X91.175 Y104.825 E9.41183
G1 X91.175 Y102.825 E9.45305
G1 X87.175 Y102.825 E9.53549
G1 X87.175 Y100.825 E9.57671
G1 X85.175 Y100.825 E9.61793
G1 X85.175 Y98.825 E9.65915
G1 X83.175 Y98.825 E9.70037
G1 X83.175 Y97.175 E9.73438
G1 X85.175 Y97.175 E9.77560
G1 X85.175 Y95.175 E9.81682
G1 X87.175 Y95.175 E9.85804
G1 X87.175 Y90.825 E9.94770
G1 X85.175 Y90.825 E9.98892
G1 X85.175 Y87.175 E10.06414
G1 X87.175 Y87.175 E10.10536
G1 X87.175 Y85.175 E10.14659
G1 X95.175 Y85.175 E10.31147
G1 X95.175 Y83.175 E10.35269
G1 X97.175 Y83.175 E10.39391
G1 X97.175 Y81.175 E10.43513
G1 X100.825 Y81.175 E10.51036
G1 X100.825 Y83.175 E10.55158
G1 X108.825 Y83.175 E10.71646
G1 X108.825 Y85.175 E10.75768
G1 X114.825 Y85.175 E10.88134
G1 X114.825 Y89.175 E10.96378
G1 X116.825 Y89.175 E11.00501
G1 X116.825 Y91.175 E11.04623
G1 X120.825 Y91.175 E11.12867
G1 X120.825 Y98.825 E11.28634
G1 X118.825 Y98.825 E11.32756
G1 X118.825 Y100.825 E11.36878
G1 X114.825 Y100.825 E11.45122
G1 X114.825 Y104.825 E11.53366
G1 X112.900 Y104.825 E11.57334
G1 X112.359 Y105.005 F7800.000
G1 E9.57334 F2400.00000
G92 E0
G1 X117.240 Y97.583 F7800.000
G1 E2.00000 F2400.00000
G1 F1200
G1 X104.417 Y84.760 E2.49205
G1 X103.513 Y84.760 E2.51658
G1 X117.240 Y98.487 E3.04331
G1 X117.240 Y99.240 E3.06376
G1 X117.090 Y99.240 E3.06785
G1 X102.609 Y84.760 E3.62349
G1 X101.705 Y84.760 E3.64802
G1 X116.186 Y99.240 E4.20367
G1 X115.281 Y99.240 E4.22820
G1 X100.801 Y84.760 E4.78384
G1 X99.897 Y84.760 E4.80837
G1 X114.377 Y99.240 E5.36402
G1 X113.473 Y99.240 E5.38855
G1 X99.310 Y85.077 E5.93200
G1 X98.406 Y85.077 E5.95653
G1 X113.240 Y99.912 E6.52574
G1 X113.240 Y100.816 E6.55027
G1 X97.184 Y84.760 E7.16636
G1 X96.760 Y84.760 E7.17788
G1 X96.760 Y85.239 E7.19089
G1 X113.240 Y101.720 E7.82328
G1 X113.240 Y102.624 E7.84781
G1 X96.760 Y86.143 E8.48020
G1 X96.760 Y86.760 E8.49693
G1 X96.472 Y86.760 E8.50473
G1 X112.953 Y103.240 E9.13712
G1 X112.049 Y103.240 E9.16165
G1 X95.568 Y86.760 E9.79404
G1 X94.664 Y86.760 E9.81857
G1 X111.240 Y103.336 E10.45464
G1 X111.240 Y104.240 E10.47917
G1 X93.760 Y86.760 E11.14993
G1 X92.856 Y86.760 E11.17446
G1 X111.240 Y105.144 E11.87991
G1 X111.240 Y105.240 E11.88251
G1 X110.432 Y105.240 E11.90444
G1 X91.951 Y86.760 E12.61357
G1 X91.047 Y86.760 E12.63810
G1 X109.528 Y105.240 E13.34723
G1 X108.624 Y105.240 E13.37176
G1 X90.143 Y86.760 E14.08089
G1 X89.239 Y86.760 E14.10542
G1 X107.720 Y105.240 E14.81455
G1 X106.816 Y105.240 E14.83908
G1 X88.760 Y87.184 E15.53192
G1 X88.760 Y87.806 E15.54880
G1 X89.077 Y87.806 E15.55742
G1 X89.077 Y88.406 E15.57370
G1 X105.912 Y105.240 E16.21965
G1 X105.240 Y105.240 E16.23786
G1 X105.240 Y105.473 E16.24418
G1 X89.077 Y89.310 E16.86437
G1 X89.077 Y89.699 E16.87493
G1 X88.760 Y89.699 E16.88355
G1 X88.760 Y89.897 E16.88890
G1 X105.240 Y106.377 E17.52129
G1 X105.240 Y107.240 E17.54471
G1 X105.199 Y107.240 E17.54582
G1 X88.760 Y90.801 E18.17664
G1 X88.760 Y91.705 E18.20117
G1 X104.295 Y107.240 E18.79729
G1 X103.391 Y107.240 E18.82182
G1 X88.760 Y92.609 E19.38325
G1 X88.760 Y93.513 E19.40778
G1 X102.487 Y107.240 E19.93452
G1 X101.583 Y107.240 E19.95905
G1 X88.760 Y94.417 E20.45109
G1 X88.760 Y95.321 E20.47563
G1 X100.679 Y107.240 E20.93298
G1 X99.775 Y107.240 E20.95751
G1 X88.760 Y96.225 E21.38017
G1 X88.760 Y96.760 E21.39467
G1 X88.390 Y96.760 E21.40470
G1 X92.871 Y101.240 E21.57664
G1 X91.966 Y101.240 E21.60117
G1 X87.486 Y96.760 E21.77310
