; generated by Slic3r 0.7.2b on 2012-06-04 at 12:26:35

; layer_height = 0.1
; perimeters = 1
; solid_layers = 0
; fill_density = 0
; nozzle_diameter = 0.4
; filament_diameter = 2.94
; extrusion_multiplier = 1
; perimeter_speed = 20
; infill_speed = 30
; travel_speed = 90
; extrusion_width_ratio = 0
; scale = 1
; single wall width = 0.56mm

M104 S180 ; set temperature
M92 X78.7402 Y78.7402 E926 ;Set the right speed
G28 ;home all axes
M106 ;turn fan on
M109 S180 ; wait for temperature to be reached
G90 ; use absolute coordinates
G21 ; set units to millimeters
G92 E0 ; reset extrusion distance
M82 ; use absolute distances for extrusion
M106 S254
G1 Z0.100 F5400.000
G1 X94.574 Y95.403
G1
G1 X94.746 Y95.307 F360.000 E0.00156
G1 X95.123 Y95.156 E0.00478
G1 X95.612 Y94.916 E0.00910
G1 X96.192 Y94.670 E0.01410
G1 X96.230 Y94.660 E0.01441
G1 X96.644 Y94.578 E0.01776
G1 X96.849 Y94.575 E0.01939
G1 X97.349 Y94.609 E0.02336
G1 X97.482 Y94.631 E0.02443
G1 X97.678 Y94.698 E0.02608
G1 X97.875 Y94.745 E0.02768
G1 X97.975 Y94.782 E0.02853
G1 X98.026 Y94.821 E0.02904
G1 X98.039 Y94.890 E0.02959
G1 X98.046 Y94.958 E0.03014
G1 X97.989 Y95.039 E0.03092
G1 X97.967 Y95.130 E0.03167
G1 X97.939 Y95.155 E0.03196
G1 X97.921 Y95.192 E0.03228
G1 X97.709 Y95.344 E0.03436
G1 X97.689 Y95.509 E0.03568
G1 X97.667 Y95.532 E0.03593
G1 X97.645 Y95.582 E0.03636
G1 X97.505 Y95.709 E0.03786
G1 X97.380 Y95.895 E0.03964
G1 X97.374 Y95.899 E0.03969
G1 X97.279 Y95.997 E0.04078
G1 X97.073 Y96.169 E0.04291
G1 X97.053 Y96.191 E0.04314
G1 X96.745 Y96.488 E0.04654
G1 X96.691 Y96.596 E0.04749
G1 X96.476 Y96.838 E0.05006
G1 X96.472 Y96.995 E0.05131
G1 X96.426 Y97.057 E0.05192
G1 X96.393 Y97.126 E0.05253
G1 X96.201 Y97.368 E0.05498
G1 X96.069 Y97.571 E0.05690
G1 X95.354 Y98.518 E0.06631
G1 X94.653 Y99.681 E0.07709
G1 X94.334 Y100.353 E0.08298
G1 X94.081 Y101.076 E0.08906
G1 X93.686 Y102.641 E0.10186
G1 X93.431 Y104.397 E0.11594
G1 X93.369 Y105.331 E0.12337
G1 X93.341 Y107.507 E0.14063
G1 X93.221 Y107.651 E0.14212
G1 X93.252 Y108.291 E0.14720
G1 X93.240 Y108.489 E0.14878
G1 X93.374 Y109.447 E0.15645
G1 X93.590 Y110.441 E0.16452
G1 X93.881 Y111.462 E0.17294
G1 X94.266 Y112.373 E0.18079
G1 X94.726 Y113.183 E0.18818
G1 X95.220 Y113.945 E0.19538
G1 X95.279 Y114.010 E0.19608
G1 X95.767 Y114.643 E0.20242
G1 X96.033 Y114.793 E0.20484
G1 X96.507 Y115.123 E0.20943
G1 X96.885 Y115.183 E0.21246
G1 X97.219 Y115.331 E0.21536
G1 X97.470 Y115.421 E0.21747
G1 X97.901 Y115.613 E0.22122
G1 X98.592 Y115.832 E0.22697
G1 X99.109 Y115.783 E0.23109
G1 X99.297 Y115.808 E0.23259
G1 X99.357 Y115.805 E0.23307
G1 X99.652 Y115.805 E0.23541
G1 X99.868 Y115.790 E0.23712
G1 X100.297 Y115.598 E0.24086
G1 X100.243 Y115.537 E0.24150
G1 X100.262 Y115.531 E0.24167
G1 X100.295 Y115.366 E0.24300
G1 X99.638 Y114.803 E0.24986
G1 X99.629 Y114.725 E0.25049
G1 X99.490 Y114.599 E0.25198
G1 X99.073 Y113.493 E0.26136
G1 X99.085 Y113.081 E0.26462
G1 X98.203 Y111.992 E0.27574
G1 X98.055 Y111.681 E0.27848
G1 X97.362 Y110.486 E0.28944
G1 X96.711 Y108.875 E0.30322
G1 X96.304 Y107.131 E0.31743
G1 X96.174 Y105.392 E0.33126
G1 X96.304 Y103.652 E0.34510
G1 X96.706 Y101.902 E0.35935
G1 X97.330 Y100.277 E0.37316
G1 X98.208 Y98.804 E0.38676
G1 X99.036 Y97.782 E0.39719
G1 X100.382 Y96.556 E0.41164
G1 X100.548 Y96.352 E0.41373
G1 X101.650 Y95.640 E0.42413
G1 X101.948 Y95.278 E0.42785
G1 X103.040 Y94.773 E0.43739
G1 X103.133 Y94.124 E0.44259
G1 X103.268 Y94.037 E0.44386
G1 X103.298 Y93.864 E0.44526
G1 X103.897 Y92.878 E0.45441
G1 X103.670 Y91.988 E0.46170
G1 X103.662 Y91.836 E0.46291
G1 X103.800 Y91.533 E0.46555
G1 X103.761 Y90.614 E0.47284
G1 X103.949 Y90.406 E0.47507
G1 X103.958 Y90.394 E0.47518
G1 X104.700 Y90.499 E0.48113
G1 X105.579 Y90.869 E0.48869
G1 X105.728 Y90.998 E0.49026
G1 X106.749 Y91.543 E0.49944
G1 X106.867 Y91.655 E0.50073
G1 X108.506 Y92.504 E0.51537
G1 X110.203 Y92.225 E0.52901
G1 X110.323 Y92.156 E0.53012
G1 X111.293 Y91.991 E0.53792
G1 X111.430 Y91.922 E0.53914
G1 X112.192 Y91.876 E0.54520
G1 X112.886 Y92.005 E0.55080
G1 X112.910 Y92.053 E0.55122
G1 X113.078 Y92.336 E0.55384
G1 X112.993 Y93.232 E0.56098
G1 X113.096 Y93.566 E0.56375
G1 X113.076 Y93.708 E0.56489
G1 X112.853 Y94.362 E0.57037
G1 X112.513 Y94.926 E0.57559
G1 X113.210 Y95.649 E0.58356
G1 X113.212 Y95.742 E0.58429
G1 X113.308 Y95.856 E0.58548
G1 X113.241 Y96.493 E0.59056
G1 X114.131 Y97.330 E0.60026
G1 X114.376 Y97.813 E0.60455
G1 X115.196 Y98.823 E0.61487
G1 X116.050 Y100.341 E0.62868
G1 X116.684 Y101.954 E0.64244
G1 X117.069 Y103.652 E0.65624
G1 X117.200 Y105.392 E0.67009
G1 X117.069 Y107.132 E0.68393
G1 X116.684 Y108.829 E0.69774
G1 X116.051 Y110.441 E0.71147
G1 X115.188 Y111.928 E0.72511
G1 X114.116 Y113.251 E0.73862
G1 X112.819 Y114.391 E0.75232
G1 X111.267 Y115.335 E0.76673
G1 X110.686 Y115.622 E0.77187
G1 X110.423 Y115.567 E0.77400
G1 X110.245 Y115.722 E0.77587
G1 X110.137 Y115.758 E0.77677
G1 X109.995 Y115.829 E0.77803
G1 X109.994 Y115.807 E0.77821
G1 X109.033 Y116.136 E0.78626
G1 X108.568 Y116.957 E0.79375
G1 X108.321 Y117.110 E0.79606
G1 X108.090 Y117.698 E0.80107
G1 X107.790 Y118.172 E0.80552
G1 X107.526 Y118.519 E0.80898
G1 X106.713 Y118.902 E0.81611
G1 X106.293 Y119.146 E0.81996
G1 X105.660 Y119.393 E0.82535
G1 X104.495 Y119.659 E0.83483
G1 X103.276 Y119.866 E0.84464
G1 X101.945 Y119.886 E0.85520
G1 X100.529 Y119.748 E0.86648
G1 X99.169 Y119.407 E0.87761
G1 X98.615 Y119.137 E0.88250
G1 X98.489 Y118.977 E0.88411
G1 X98.015 Y118.759 E0.88825
G1 X97.733 Y118.543 E0.89106
G1 X96.918 Y118.098 E0.89843
G1 X95.989 Y117.491 E0.90724
G1 X95.164 Y116.844 E0.91556
G1 X94.384 Y116.101 E0.92410
G1 X93.571 Y115.176 E0.93387
G1 X92.903 Y114.179 E0.94339
G1 X92.378 Y112.985 E0.95374
G1 X91.930 Y111.765 E0.96405
G1 X91.019 Y108.096 E0.99404
G1 X90.883 Y107.387 E0.99977
G1 X90.853 Y105.942 E1.01123
G1 X90.938 Y104.534 E1.02242
G1 X91.095 Y103.191 E1.03315
G1 X91.321 Y101.927 E1.04333
G1 X91.565 Y100.957 E1.05127
G1 X91.596 Y100.716 E1.05319
G1 X91.749 Y100.164 E1.05774
G1 X91.731 Y99.977 E1.05923
G1 X91.835 Y99.586 E1.06244
G1 X92.238 Y98.612 E1.07080
G1 X92.690 Y97.758 E1.07847
G1 X93.161 Y97.007 E1.08550
G1 X93.639 Y96.359 E1.09188
G1 X94.112 Y95.815 E1.09760
G1 X94.512 Y95.459 E1.10185
M106 S254
G1 Z0.200 F5400.000
G1 X94.549 Y95.308
G1 X94.595 Y95.278 F1200.000 E1.10229
G1 X95.069 Y95.024 E1.10656
G1 X96.161 Y94.577 E1.11592
G1 X96.630 Y94.439 E1.11980
G1 X96.873 Y94.409 E1.12174
G1 X97.046 Y94.409 E1.12311
G1 X97.463 Y94.441 E1.12643
G1 X97.757 Y94.507 E1.12882
G1 X97.826 Y94.528 E1.12939
G1 X98.142 Y94.641 E1.13205
G1 X98.177 Y94.667 E1.13240
G1 X98.203 Y94.717 E1.13285
G1 X98.221 Y94.823 E1.13370
G1 X98.226 Y94.903 E1.13434
G1 X98.233 Y94.947 E1.13469
G1 X98.226 Y94.975 E1.13491
G1 X98.215 Y95.047 E1.13549
G1 X98.206 Y95.061 E1.13563
G1 X98.096 Y95.162 E1.13681
G1 X98.030 Y95.295 E1.13799
G1 X97.964 Y95.383 E1.13886
G1 X97.834 Y95.520 E1.14036
G1 X97.778 Y95.645 E1.14145
G1 X97.713 Y95.724 E1.14226
G1 X97.547 Y95.875 E1.14404
G1 X97.424 Y96.006 E1.14546
G1 X97.293 Y96.115 E1.14682
G1 X97.098 Y96.337 E1.14916
G1 X97.025 Y96.407 E1.14996
G1 X96.987 Y96.484 E1.15065
G1 X96.826 Y96.676 E1.15263
G1 X96.758 Y96.789 E1.15368
G1 X96.627 Y96.966 E1.15542
G1 X96.537 Y97.154 E1.15708
G1 X95.522 Y98.480 E1.17033
G1 X95.071 Y99.187 E1.17698
G1 X94.736 Y99.795 E1.18248
G1 X94.426 Y100.456 E1.18828
G1 X94.167 Y101.174 E1.19433
G1 X93.788 Y102.726 E1.20701
G1 X93.549 Y104.452 E1.22082
G1 X93.486 Y106.304 E1.23552
G1 X93.511 Y107.243 E1.24298
G1 X93.477 Y108.241 E1.25090
G1 X93.483 Y108.444 E1.25251
G1 X93.538 Y108.995 E1.25690
G1 X93.528 Y109.145 E1.25810
G1 X93.753 Y110.332 E1.26768
G1 X94.043 Y111.315 E1.27581
G1 X94.415 Y112.209 E1.28349
G1 X94.869 Y112.983 E1.29061
G1 X95.350 Y113.701 E1.29747
G1 X95.903 Y114.333 E1.30413
G1 X96.550 Y114.818 E1.31055
G1 X97.373 Y115.147 E1.31758
G1 X97.895 Y115.417 E1.32224
G1 X98.015 Y115.468 E1.32327
G1 X98.596 Y115.668 E1.32814
G1 X99.140 Y115.737 E1.33250
G1 X99.333 Y115.725 E1.33403
G1 X99.373 Y115.728 E1.33434
G1 X99.446 Y115.723 E1.33493
G1 X99.952 Y115.624 E1.33901
G1 X100.004 Y115.469 E1.34032
G1 X99.777 Y115.214 E1.34302
G1 X99.747 Y115.156 E1.34354
G1 X99.487 Y114.883 E1.34653
G1 X99.354 Y114.763 E1.34795
G1 X99.283 Y114.657 E1.34896
G1 X98.330 Y113.841 E1.35892
G1 X98.362 Y112.792 E1.36725
G1 X97.975 Y112.314 E1.37212
G1 X97.512 Y111.338 E1.38069
G1 X97.166 Y110.742 E1.38616
G1 X96.464 Y109.087 E1.40042
G1 X96.002 Y107.198 E1.41585
G1 X95.867 Y105.409 E1.43008
G1 X96.002 Y103.618 E1.44433
G1 X96.448 Y101.713 E1.45985
G1 X97.071 Y100.013 E1.47422
G1 X98.004 Y98.524 E1.48815
G1 X98.372 Y98.070 E1.49279
G1 X99.874 Y96.682 E1.50902
G1 X100.400 Y96.032 E1.51564
G1 X100.859 Y95.736 E1.51998
G1 X101.734 Y94.675 E1.53089
G1 X101.820 Y94.602 E1.53178
G1 X102.990 Y93.844 E1.54284
G1 X103.167 Y92.842 E1.55091
G1 X103.061 Y91.029 E1.56532
G1 X103.739 Y90.278 E1.57334
G1 X103.940 Y89.990 E1.57613
G1 X104.687 Y90.098 E1.58212
G1 X105.571 Y90.483 E1.58977
G1 X106.040 Y90.891 E1.59470
G1 X106.753 Y91.271 E1.60111
G1 X107.103 Y91.605 E1.60495
G1 X108.515 Y92.337 E1.61757
G1 X109.981 Y92.096 E1.62935
G1 X110.342 Y91.888 E1.63265
G1 X111.019 Y91.774 E1.63810
G1 X111.459 Y91.549 E1.64202
G1 X112.225 Y91.490 E1.64812
G1 X112.923 Y91.610 E1.65373
G1 X113.109 Y91.984 E1.65705
G1 X113.681 Y92.948 E1.66594
G1 X113.462 Y94.691 E1.67987
G1 X113.483 Y95.648 E1.68747
G1 X114.401 Y96.739 E1.69878
G1 X114.402 Y96.742 E1.69881
G1 X114.487 Y96.873 E1.70005
G1 X115.182 Y98.242 E1.71223
G1 X115.459 Y98.583 E1.71571
G1 X116.321 Y100.206 E1.73029
G1 X116.975 Y101.870 E1.74447
G1 X117.372 Y103.617 E1.75869
G1 X117.506 Y105.409 E1.77294
G1 X117.372 Y107.200 E1.78719
G1 X116.975 Y108.948 E1.80141
G1 X116.323 Y110.607 E1.81555
G1 X115.436 Y112.139 E1.82959
G1 X114.332 Y113.502 E1.84350
G1 X113.016 Y114.671 E1.85747
G1 X111.481 Y115.629 E1.87182
G1 X111.058 Y115.838 E1.87557
G1 X110.427 Y116.044 E1.88083
G1 X110.054 Y116.269 E1.88429
G1 X109.836 Y116.384 E1.88624
G1 X109.598 Y116.534 E1.88847
G1 X109.481 Y116.713 E1.89017
G1 X109.401 Y116.888 E1.89170
G1 X109.210 Y117.227 E1.89479
G1 X109.205 Y117.247 E1.89495
G1 X108.923 Y117.667 E1.89896
G1 X108.848 Y117.713 E1.89966
G1 X108.820 Y117.783 E1.90026
G1 X108.009 Y118.450 E1.90859
G1 X106.782 Y119.029 E1.91935
G1 X105.806 Y119.596 E1.92831
G1 X105.758 Y119.617 E1.92872
G1 X104.585 Y119.885 E1.93827
G1 X103.362 Y120.079 E1.94809
G1 X103.288 Y120.076 E1.94867
G1 X102.010 Y120.086 E1.95882
G1 X100.567 Y119.929 E1.97033
G1 X99.182 Y119.587 E1.98165
G1 X97.977 Y118.979 E1.99236
G1 X96.855 Y118.319 E2.00268
G1 X95.910 Y117.681 E2.01173
G1 X95.061 Y117.010 E2.02031
G1 X94.293 Y116.288 E2.02867
G1 X93.447 Y115.336 E2.03878
G1 X92.750 Y114.341 E2.04842
G1 X92.214 Y113.118 E2.05901
G1 X91.757 Y111.869 E2.06956
G1 X90.765 Y107.703 E2.10353
G1 X90.719 Y107.404 E2.10593
G1 X90.727 Y105.932 E2.11761
G1 X90.821 Y104.503 E2.12897
G1 X91.208 Y101.858 E2.15018
G1 X91.250 Y101.694 E2.15152
G1 X91.269 Y101.543 E2.15272
G1 X91.746 Y99.571 E2.16882
G1 X91.760 Y99.526 E2.16920
G1 X92.185 Y98.558 E2.17758
G1 X92.644 Y97.698 E2.18532
G1 X93.120 Y96.945 E2.19238
G1 X93.602 Y96.296 E2.19879
G1 X94.082 Y95.748 E2.20458
G1 X94.487 Y95.366 E2.20899
M106 S254
G1 Z0.300 F5400.000
G1 X94.539 Y95.285
G1 X95.057 Y94.946 F1200.000 E2.21391
G1 X95.065 Y94.942 E2.21398
G1 X96.137 Y94.507 E2.22316
G1 X96.608 Y94.367 E2.22706
G1 X97.048 Y94.313 E2.23057
G1 X97.242 Y94.314 E2.23211
G1 X97.447 Y94.330 E2.23374
G1 X97.704 Y94.368 E2.23580
G1 X97.806 Y94.391 E2.23663
G1 X98.139 Y94.509 E2.23944
G1 X98.246 Y94.562 E2.24038
G1 X98.338 Y94.632 E2.24130
G1 X98.353 Y94.668 E2.24161
G1 X98.367 Y94.768 E2.24241
G1 X98.367 Y94.774 E2.24245
G1 X98.378 Y94.893 E2.24340
G1 X98.377 Y94.901 E2.24347
G1 X98.360 Y94.974 E2.24406
G1 X98.247 Y95.161 E2.24579
G1 X97.735 Y95.817 E2.25240
G1 X97.707 Y95.842 E2.25269
G1 X97.220 Y96.327 E2.25815
G1 X96.979 Y96.614 E2.26112
G1 X96.855 Y96.823 E2.26305
G1 X95.698 Y98.338 E2.27817
G1 X95.114 Y99.251 E2.28677
G1 X94.784 Y99.858 E2.29225
G1 X94.480 Y100.514 E2.29799
G1 X94.215 Y101.226 E2.30401
G1 X93.841 Y102.763 E2.31656
G1 X93.603 Y104.475 E2.33027
G1 X93.547 Y105.386 E2.33751
G1 X93.606 Y108.072 E2.35882
G1 X93.601 Y108.212 E2.35994
G1 X93.617 Y108.767 E2.36434
G1 X93.666 Y109.256 E2.36824
G1 X93.871 Y110.258 E2.37635
G1 X94.153 Y111.215 E2.38426
G1 X94.509 Y112.103 E2.39186
G1 X94.954 Y112.861 E2.39883
G1 X95.425 Y113.563 E2.40554
G1 X95.976 Y114.190 E2.41215
G1 X96.530 Y114.582 E2.41754
G1 X96.590 Y114.634 E2.41817
G1 X97.328 Y115.067 E2.42496
G1 X97.415 Y115.103 E2.42571
G1 X97.861 Y115.334 E2.42969
G1 X98.187 Y115.471 E2.43249
G1 X98.649 Y115.632 E2.43637
G1 X98.986 Y115.665 E2.43906
G1 X99.022 Y115.663 E2.43935
G1 X99.239 Y115.675 E2.44108
G1 X99.672 Y115.649 E2.44451
G1 X99.618 Y115.224 E2.44792
G1 X99.567 Y115.127 E2.44879
G1 X99.520 Y115.078 E2.44932
G1 X99.230 Y114.816 E2.45243
G1 X99.086 Y114.602 E2.45447
G1 X98.372 Y113.991 E2.46193
G1 X98.376 Y113.904 E2.46262
G1 X97.863 Y112.605 E2.47370
G1 X97.759 Y112.499 E2.47487
G1 X97.756 Y112.496 E2.47491
G1 X96.974 Y111.005 E2.48827
G1 X96.218 Y109.304 E2.50303
G1 X95.770 Y107.257 E2.51966
G1 X95.632 Y105.424 E2.53424
G1 X95.768 Y103.589 E2.54883
G1 X96.192 Y101.520 E2.56559
G1 X96.193 Y101.516 E2.56562
G1 X96.958 Y99.825 E2.58034
G1 X97.814 Y98.294 E2.59425
G1 X97.817 Y98.291 E2.59429
G1 X97.832 Y98.273 E2.59448
G1 X98.099 Y97.991 E2.59756
G1 X99.366 Y96.808 E2.61131
G1 X99.886 Y96.165 E2.61787
G1 X100.295 Y95.766 E2.62240
G1 X100.313 Y95.738 E2.62266
G1 X101.604 Y94.628 E2.63617
G1 X101.807 Y94.237 E2.63967
G1 X102.712 Y93.652 E2.64822
G1 X102.854 Y92.845 E2.65471
G1 X102.772 Y91.435 E2.66592
G1 X102.949 Y91.044 E2.66932
G1 X103.049 Y90.682 E2.67230
G1 X103.528 Y90.151 E2.67798
G1 X103.923 Y89.586 E2.68345
G1 X104.673 Y89.696 E2.68946
G1 X105.563 Y90.097 E2.69720
G1 X106.352 Y90.784 E2.70551
G1 X106.756 Y91.000 E2.70914
G1 X107.339 Y91.555 E2.71553
G1 X108.525 Y92.170 E2.72612
G1 X109.760 Y91.967 E2.73605
G1 X110.361 Y91.621 E2.74155
G1 X110.744 Y91.556 E2.74464
G1 X111.488 Y91.177 E2.75126
G1 X112.258 Y91.104 E2.75740
G1 X112.960 Y91.215 E2.76303
G1 X113.307 Y91.915 E2.76924
G1 X113.711 Y92.595 E2.77551
G1 X113.778 Y93.003 E2.77878
G1 X113.907 Y93.442 E2.78242
G1 X113.738 Y94.790 E2.79319
G1 X113.754 Y95.555 E2.79926
G1 X114.467 Y96.402 E2.80805
G1 X114.649 Y96.912 E2.81235
G1 X115.618 Y98.395 E2.82640
G1 X115.683 Y98.539 E2.82765
G1 X116.535 Y100.105 E2.84179
G1 X117.202 Y101.805 E2.85628
G1 X117.607 Y103.592 E2.87081
G1 X117.745 Y105.424 E2.88539
G1 X117.607 Y107.256 E2.89996
G1 X117.202 Y109.042 E2.91449
G1 X116.536 Y110.739 E2.92895
G1 X115.629 Y112.305 E2.94331
G1 X114.500 Y113.699 E2.95753
G1 X113.169 Y114.892 E2.97172
G1 X111.649 Y115.858 E2.98601
G1 X111.307 Y116.010 E2.98897
G1 X110.510 Y116.269 E2.99562
G1 X110.353 Y116.363 E2.99708
G1 X109.835 Y116.638 E3.00172
G1 X109.737 Y116.700 E3.00265
G1 X109.708 Y116.743 E3.00306
G1 X109.492 Y116.908 E3.00521
G1 X109.298 Y117.252 E3.00835
G1 X109.277 Y117.349 E3.00914
G1 X109.078 Y117.646 E3.01197
G1 X109.023 Y117.695 E3.01256
G1 X107.714 Y118.748 E3.02588
G1 X106.852 Y119.155 E3.03345
G1 X106.162 Y119.555 E3.03977
G1 X105.791 Y119.720 E3.04300
G1 X104.613 Y120.001 E3.05260
G1 X103.388 Y120.182 E3.06243
G1 X102.941 Y120.165 E3.06597
G1 X102.031 Y120.172 E3.07319
G1 X100.580 Y119.995 E3.08479
G1 X99.179 Y119.647 E3.09625
G1 X97.955 Y119.107 E3.10685
G1 X95.866 Y117.782 E3.12648
G1 X95.004 Y117.103 E3.13518
G1 X94.225 Y116.377 E3.14363
G1 X93.377 Y115.426 E3.15373
G1 X92.665 Y114.426 E3.16348
G1 X92.121 Y113.193 E3.17417
G1 X91.657 Y111.925 E3.18488
G1 X90.892 Y108.917 E3.20950
G1 X90.659 Y107.407 E3.22162
G1 X90.661 Y105.923 E3.23340
G1 X90.744 Y104.480 E3.24486
G1 X90.909 Y103.113 E3.25579
G1 X91.410 Y100.593 E3.27617
G1 X91.743 Y99.509 E3.28516
G1 X92.169 Y98.539 E3.29356
G1 X92.629 Y97.677 E3.30131
G1 X93.106 Y96.923 E3.30839
G1 X93.589 Y96.274 E3.31481
G1 X94.071 Y95.725 E3.32060
G1 X94.478 Y95.343 E3.32503
M106 S254
G1 Z0.400 F5400.000
G1 X94.529 Y95.262
