; generated by Slic3r 1.3.0 on 2021-12-29 at 00:19:45

; external perimeters extrusion width = 0.55mm (4.37mm^3/s)
; perimeters extrusion width = 0.70mm (11.44mm^3/s)
; infill extrusion width = 0.62mm (13.45mm^3/s)
; solid infill extrusion width = 0.70mm (3.81mm^3/s)
; top infill extrusion width = 0.70mm (2.86mm^3/s)

M107
M104 S200 ; set temperature
G28 ; home all axes
G1 Z5 F5000 ; lift nozzle

; Filament gcode

M109 S200 ; set temperature and wait for it to be reached
G21 ; set units to millimeters
G90 ; use absolute coordinates
M82 ; use absolute distances for extrusion
G92 E0
G1 Z0.350 F7800.000
G1 E-2.00000 F2400.00000
G92 E0
G1 X84.915 Y85.753 F7800.000
G1 E2.00000 F2400.00000
G1 F1800
G1 X86.668 Y84.274 E2.07096
G1 X88.820 Y83.481 E2.14192
G1 X90.000 Y83.375 E2.17858
G1 X110.000 Y83.375 E2.79740
G1 X112.259 Y83.772 E2.86836
G1 X114.247 Y84.915 E2.93933
G1 X115.726 Y86.668 E3.01029
G1 X116.519 Y88.820 E3.08125
G1 X116.625 Y90.000 E3.11790
G1 X116.625 Y110.000 E3.73673
G1 X116.228 Y112.259 E3.80769
G1 X115.085 Y114.247 E3.87865
G1 X113.332 Y115.726 E3.94962
G1 X111.180 Y116.519 E4.02058
G1 X110.000 Y116.625 E4.05723
G1 X90.000 Y116.625 E4.67606
G1 X87.741 Y116.228 E4.74702
G1 X85.753 Y115.085 E4.81798
G1 X84.274 Y113.332 E4.88894
G1 X83.481 Y111.180 E4.95990
G1 X83.375 Y110.000 E4.99656
G1 X83.375 Y90.000 E5.61538
G1 X83.772 Y87.741 E5.68634
G1 X84.878 Y85.818 E5.75499
G1 E3.75499 F2400.00000
G92 E0
G1 X108.400 Y108.400 F7800.000
G1 E2.00000 F2400.00000
G1 F1800
G1 X91.600 Y108.400 E2.51983
G1 X91.600 Y91.600 E3.03966
G1 X108.400 Y91.600 E3.55948
G1 X108.400 Y108.325 E4.07699
G1 X109.025 Y109.025 F7800.000
G1 F1800
G1 X90.975 Y109.025 E4.63549
G1 X90.975 Y90.975 E5.19399
G1 X109.025 Y90.975 E5.75248
G1 X109.025 Y108.950 E6.30866
G1 X109.650 Y109.650 F7800.000
G1 F1800
G1 X90.350 Y109.650 E6.90583
G1 X90.350 Y90.350 E7.50300
G1 X109.650 Y90.350 E8.10016
G1 X109.650 Y109.575 E8.69501
G1 X109.167 Y109.521 F7800.000
G1 E6.69501 F2400.00000
G92 E0
G1 X107.532 Y108.018 F7800.000
G1 E2.00000 F2400.00000
G1 F1800
G1 X108.018 Y107.532 E2.02139
G1 X108.018 Y106.644 E2.04904
G1 X106.644 Y108.018 E2.10953
G1 X105.755 Y108.018 E2.13717
G1 X108.018 Y105.755 E2.23676
G1 X108.018 Y104.866 E2.26441
G1 X104.866 Y108.018 E2.40309
G1 X103.978 Y108.018 E2.43074
G1 X108.018 Y103.978 E2.60852
G1 X108.018 Y103.089 E2.63617
G1 X103.089 Y108.018 E2.85305
G1 X102.201 Y108.018 E2.88069
G1 X108.018 Y102.201 E3.13667
G1 X108.018 Y101.312 E3.16432
G1 X101.312 Y108.018 E3.45939
G1 X100.423 Y108.018 E3.48704
G1 X108.018 Y100.423 E3.82121
G1 X108.018 Y99.535 E3.84886
G1 X99.535 Y108.018 E4.22213
G1 X98.646 Y108.018 E4.24978
G1 X108.018 Y98.646 E4.66215
G1 X108.018 Y97.758 E4.68979
G1 X97.758 Y108.018 E5.14126
G1 X96.869 Y108.018 E5.16890
G1 X108.018 Y96.869 E5.65947
G1 X108.018 Y95.980 E5.68711
G1 X95.980 Y108.018 E6.21678
G1 X95.092 Y108.018 E6.24442
G1 X108.018 Y95.092 E6.81318
G1 X108.018 Y94.203 E6.84083
G1 X94.203 Y108.018 E7.44868
G1 X93.315 Y108.018 E7.47633
G1 X108.018 Y93.315 E8.12329
G1 X108.018 Y92.426 E8.15093
G1 X92.426 Y108.018 E8.83698
G1 X91.982 Y108.018 E8.85081
G1 X91.982 Y107.574 E8.86463
G1 X107.574 Y91.982 E9.55068
G1 X106.685 Y91.982 E9.57833
G1 X91.982 Y106.685 E10.22529
G1 X91.982 Y105.797 E10.25293
G1 X105.797 Y91.982 E10.86079
G1 X104.908 Y91.982 E10.88844
G1 X91.982 Y104.908 E11.45720
G1 X91.982 Y104.020 E11.48485
G1 X104.020 Y91.982 E12.01451
G1 X103.131 Y91.982 E12.04216
G1 X91.982 Y103.131 E12.53272
G1 X91.982 Y102.242 E12.56037
G1 X102.242 Y91.982 E13.01184
G1 X101.354 Y91.982 E13.03948
G1 X91.982 Y101.354 E13.45185
G1 X91.982 Y100.465 E13.47950
G1 X100.465 Y91.982 E13.85277
G1 X99.577 Y91.982 E13.88042
G1 X91.982 Y99.577 E14.21459
G1 X91.982 Y98.688 E14.24224
G1 X98.688 Y91.982 E14.53732
G1 X97.799 Y91.982 E14.56496
G1 X91.982 Y97.799 E14.82094
G1 X91.982 Y96.911 E14.84859
G1 X96.911 Y91.982 E15.06547
G1 X96.022 Y91.982 E15.09312
G1 X91.982 Y96.022 E15.27090
G1 X91.982 Y95.134 E15.29855
G1 X95.134 Y91.982 E15.43724
G1 X94.245 Y91.982 E15.46488
G1 X91.982 Y94.245 E15.56447
G1 X91.982 Y93.356 E15.59212
G1 X93.356 Y91.982 E15.65261
G1 X92.468 Y91.982 E15.68025
G1 X91.982 Y92.468 E15.70164
G1 Z0.650 F7800.000
G1 X108.529 Y108.529 F7800.000
G1 F3600
G1 X91.471 Y108.529 E16.16179
G1 X91.471 Y91.471 E16.62195
G1 X108.529 Y91.471 E17.08210
G1 X108.529 Y108.454 E17.54023
G1 X109.164 Y109.164 F7800.000
G1 F3600
G1 X90.836 Y109.164 E18.03467
G1 X90.836 Y90.836 E18.52912
G1 X109.164 Y90.836 E19.02357
G1 X109.164 Y109.089 E19.51599
G1 X109.725 Y109.725 F7800.000
G1 F1800
G1 X90.275 Y109.725 E19.91686
G1 X90.275 Y90.275 E20.31773
G1 X109.725 Y90.275 E20.71860
G1 X109.725 Y109.650 E21.11793
G1 X109.242 Y109.596 F7800.000
G1 X108.140 Y92.354 F7800.000
G1 F1200
G1 X107.646 Y91.860 E21.13686
G1 X106.744 Y91.860 E21.16128
G1 X108.140 Y93.256 E21.21475
G1 X108.140 Y94.158 E21.23917
G1 X105.842 Y91.860 E21.32718
G1 X104.940 Y91.860 E21.35160
G1 X108.140 Y95.060 E21.47414
G1 X108.140 Y95.962 E21.49856
G1 X104.038 Y91.860 E21.65563
G1 X103.135 Y91.860 E21.68005
G1 X108.140 Y96.865 E21.87167
G1 X108.140 Y97.767 E21.89609
G1 X102.233 Y91.860 E22.12223
G1 X101.331 Y91.860 E22.14665
G1 X108.140 Y98.669 E22.40734
G1 X108.140 Y99.571 E22.43176
G1 X100.429 Y91.860 E22.72698
G1 X99.527 Y91.860 E22.75140
G1 X108.140 Y100.473 E23.08115
G1 X108.140 Y101.375 E23.10557
G1 X98.625 Y91.860 E23.46986
G1 X97.723 Y91.860 E23.49428
G1 X108.140 Y102.277 E23.89311
G1 X108.140 Y103.179 E23.91753
G1 X96.821 Y91.860 E24.35089
G1 X95.919 Y91.860 E24.37531
G1 X108.140 Y104.081 E24.84321
G1 X108.140 Y104.983 E24.86763
G1 X95.017 Y91.860 E25.37006
G1 X94.115 Y91.860 E25.39448
G1 X108.140 Y105.885 E25.93145
G1 X108.140 Y106.787 E25.95587
G1 X93.213 Y91.860 E26.52738
G1 X92.311 Y91.860 E26.55180
G1 X108.140 Y107.689 E27.15784
G1 X108.140 Y108.140 E27.17005
G1 X107.689 Y108.140 E27.18226
G1 X91.860 Y92.311 E27.78830
G1 X91.860 Y93.213 E27.81272
G1 X106.787 Y108.140 E28.38422
G1 X105.885 Y108.140 E28.40864
G1 X91.860 Y94.115 E28.94561
G1 X91.860 Y95.017 E28.97003
G1 X104.983 Y108.140 E29.47247
G1 X104.081 Y108.140 E29.49689
G1 X91.860 Y95.919 E29.96478
G1 X91.860 Y96.821 E29.98920
G1 X103.179 Y108.140 E30.42257
G1 X102.277 Y108.140 E30.44699
G1 X91.860 Y97.723 E30.84581
G1 X91.860 Y98.625 E30.87023
G1 X101.375 Y108.140 E31.23452
G1 X100.473 Y108.140 E31.25894
G1 X91.860 Y99.527 E31.58870
G1 X91.860 Y100.429 E31.61312
G1 X99.571 Y108.140 E31.90834
G1 X98.669 Y108.140 E31.93276
G1 X91.860 Y101.331 E32.19344
G1 X91.860 Y102.233 E32.21786
G1 X97.767 Y108.140 E32.44401
G1 X96.865 Y108.140 E32.46843
G1 X91.860 Y103.135 E32.66004
G1 X91.860 Y104.038 E32.68446
G1 X95.962 Y108.140 E32.84154
G1 X95.060 Y108.140 E32.86596
G1 X91.860 Y104.940 E32.98850
G1 X91.860 Y105.842 E33.01292
G1 X94.158 Y108.140 E33.10092
G1 X93.256 Y108.140 E33.12534
G1 X91.860 Y106.744 E33.17881
G1 X91.860 Y107.646 E33.20323
G1 X92.354 Y108.140 E33.22216
G1 Z0.950 F7800.000
G1 E31.22216 F2400.00000
G92 E0
G1 X108.529 Y108.529 F7800.000
G1 E2.00000 F2400.00000
G1 F3600
G1 X91.471 Y108.529 E2.46015
G1 X91.471 Y91.471 E2.92031
G1 X108.529 Y91.471 E3.38046
G1 X108.529 Y108.454 E3.83859
G1 X109.164 Y109.164 F7800.000
G1 F3600
G1 X90.836 Y109.164 E4.33303
G1 X90.836 Y90.836 E4.82748
G1 X109.164 Y90.836 E5.32193
G1 X109.164 Y109.089 E5.81435
G1 X109.725 Y109.725 F7800.000
G1 F1800
G1 X90.275 Y109.725 E6.21522
G1 X90.275 Y90.275 E6.61609
G1 X109.725 Y90.275 E7.01696
G1 X109.725 Y109.650 E7.41629
G1 X109.242 Y109.596 F7800.000
G1 E5.41629 F2400.00000
G92 E0
G1 X107.646 Y108.140 F7800.000
G1 E2.00000 F2400.00000
G1 F900
G1 X108.140 Y107.646 E2.01893
G1 X108.140 Y106.744 E2.04335
G1 X106.744 Y108.140 E2.09682
G1 X105.842 Y108.140 E2.12124
G1 X108.140 Y105.842 E2.20925
G1 X108.140 Y104.940 E2.23367
G1 X104.940 Y108.140 E2.35621
G1 X104.038 Y108.140 E2.38063
G1 X108.140 Y104.038 E2.53770
G1 X108.140 Y103.135 E2.56212
G1 X103.135 Y108.140 E2.75374
G1 X102.233 Y108.140 E2.77816
G1 X108.140 Y102.233 E3.00430
G1 X108.140 Y101.331 E3.02872
G1 X101.331 Y108.140 E3.28940
G1 X100.429 Y108.140 E3.31383
G1 X108.140 Y100.429 E3.60904
G1 X108.140 Y99.527 E3.63346
G1 X99.527 Y108.140 E3.96322
G1 X98.625 Y108.140 E3.98764
G1 X108.140 Y98.625 E4.35193
G1 X108.140 Y97.723 E4.37635
G1 X97.723 Y108.140 E4.77517
G1 X96.821 Y108.140 E4.79959
G1 X108.140 Y96.821 E5.23295
G1 X108.140 Y95.919 E5.25737
G1 X95.919 Y108.140 E5.72527
G1 X95.017 Y108.140 E5.74969
G1 X108.140 Y95.017 E6.25212
G1 X108.140 Y94.115 E6.27654
G1 X94.115 Y108.140 E6.81351
G1 X93.213 Y108.140 E6.83793
G1 X108.140 Y93.213 E7.40943
G1 X108.140 Y92.311 E7.43385
G1 X92.311 Y108.140 E8.03989
G1 X91.860 Y108.140 E8.05210
G1 X91.860 Y107.689 E8.06431
G1 X107.689 Y91.860 E8.67035
G1 X106.787 Y91.860 E8.69477
G1 X91.860 Y106.787 E9.26627
G1 X91.860 Y105.885 E9.29069
G1 X105.885 Y91.860 E9.82766
G1 X104.983 Y91.860 E9.85208
G1 X91.860 Y104.983 E10.35451
G1 X91.860 Y104.081 E10.37893
G1 X104.081 Y91.860 E10.84683
G1 X103.179 Y91.860 E10.87125
G1 X91.860 Y103.179 E11.30461
G1 X91.860 Y102.277 E11.32903
G1 X102.277 Y91.860 E11.72786
G1 X101.375 Y91.860 E11.75228
G1 X91.860 Y101.375 E12.11657
G1 X91.860 Y100.473 E12.14099
G1 X100.473 Y91.860 E12.47074
G1 X99.571 Y91.860 E12.49516
G1 X91.860 Y99.571 E12.79038
G1 X91.860 Y98.669 E12.81480
G1 X98.669 Y91.860 E13.07548
G1 X97.767 Y91.860 E13.09990
G1 X91.860 Y97.767 E13.32605
G1 X91.860 Y96.865 E13.35047
G1 X96.865 Y91.860 E13.54208
G1 X95.962 Y91.860 E13.56650
G1 X91.860 Y95.962 E13.72358
G1 X91.860 Y95.060 E13.74800
G1 X95.060 Y91.860 E13.87054
G1 X94.158 Y91.860 E13.89496
G1 X91.860 Y94.158 E13.98296
G1 X91.860 Y93.256 E14.00738
G1 X93.256 Y91.860 E14.06085
G1 X92.354 Y91.860 E14.08527
G1 X91.860 Y92.354 E14.10420
M106 S252.45
G1 Z1.250 F7800.000
G1 E12.10420 F2400.00000
G92 E0
G1 X109.275 Y109.275 F7800.000
G1 E2.00000 F2400.00000
G1 F1800
G1 X90.725 Y109.275 E2.38232
G1 X90.725 Y90.725 E2.76464
G1 X109.275 Y90.725 E3.14696
G1 X109.275 Y109.200 E3.52774
G1 X109.404 Y109.758 F7800.000
G1 X109.725 Y109.725 F7800.000
G1 F1800
G1 X90.275 Y109.725 E3.92861
G1 X90.275 Y90.275 E4.32948
G1 X109.725 Y90.275 E4.73035
G1 X109.725 Y109.650 E5.12968
G1 X109.242 Y109.596 F7800.000
G1 Z1.550 F7800.000
G1 X109.275 Y109.275 F7800.000
G1 F1800
G1 X90.725 Y109.275 E5.51200
G1 X90.725 Y90.725 E5.89432
G1 X109.275 Y90.725 E6.27664
G1 X109.275 Y109.200 E6.65742
G1 X109.404 Y109.758 F7800.000
G1 X109.725 Y109.725 F7800.000
G1 F1800
G1 X90.275 Y109.725 E7.05829
G1 X90.275 Y90.275 E7.45916
G1 X109.725 Y90.275 E7.86003
G1 X109.725 Y109.650 E8.25936
G1 X109.242 Y109.596 F7800.000
G1 Z1.850 F7800.000
G1 X109.275 Y109.275 F7800.000
G1 F1800
G1 X90.725 Y109.275 E8.64168
G1 X90.725 Y90.725 E9.02400
G1 X109.275 Y90.725 E9.40632
G1 X109.275 Y109.200 E9.78710
G1 X109.404 Y109.758 F7800.000
G1 X109.725 Y109.725 F7800.000
G1 F1800
G1 X90.275 Y109.725 E10.18797
G1 X90.275 Y90.275 E10.58884
G1 X109.725 Y90.275 E10.98971
G1 X109.725 Y109.650 E11.38904
G1 X109.242 Y109.596 F7800.000
G1 Z2.150 F7800.000
G1 X109.275 Y109.275 F7800.000
G1 F1800
G1 X90.725 Y109.275 E11.77136
G1 X90.725 Y90.725 E12.15368
G1 X109.275 Y90.725 E12.53600
G1 X109.275 Y109.200 E12.91678
G1 X109.404 Y109.758 F7800.000
G1 X109.725 Y109.725 F7800.000
G1 F1800
G1 X90.275 Y109.725 E13.31765
G1 X90.275 Y90.275 E13.71852
G1 X109.725 Y90.275 E14.11939
G1 X109.725 Y109.650 E14.51871
G1 X109.242 Y109.596 F7800.000
G1 Z2.450 F7800.000
G1 X109.275 Y109.275 F7800.000
G1 F1800
G1 X90.725 Y109.275 E14.90104
G1 X90.725 Y90.725 E15.28336
G1 X109.275 Y90.725 E15.66568
G1 X109.275 Y109.200 E16.04646
G1 X109.404 Y109.758 F7800.000
G1 X109.725 Y109.725 F7800.000
G1 F1800
G1 X90.275 Y109.725 E16.44733
G1 X90.275 Y90.275 E16.84820
G1 X109.725 Y90.275 E17.24907
G1 X109.725 Y109.650 E17.64839
G1 X109.242 Y109.596 F7800.000
G1 Z2.750 F7800.000
G1 X109.275 Y109.275 F7800.000
G1 F1800
G1 X90.725 Y109.275 E18.03071
G1 X90.725 Y90.725 E18.41304
G1 X109.275 Y90.725 E18.79536
G1 X109.275 Y109.200 E19.17613
G1 X109.404 Y109.758 F7800.000
G1 X109.725 Y109.725 F7800.000
G1 F1800
G1 X90.275 Y109.725 E19.57700
G1 X90.275 Y90.275 E19.97788
G1 X109.725 Y90.275 E20.37875
G1 X109.725 Y109.650 E20.77807
G1 X109.242 Y109.596 F7800.000
G1 Z3.050 F7800.000
G1 X109.275 Y109.275 F7800.000
G1 F1800
G1 X90.725 Y109.275 E21.16039
G1 X90.725 Y90.725 E21.54272
G1 X109.275 Y90.725 E21.92504
G1 X109.275 Y109.200 E22.30581
G1 X109.404 Y109.758 F7800.000
G1 X109.725 Y109.725 F7800.000
G1 F1800
G1 X90.275 Y109.725 E22.70668
G1 X90.275 Y90.275 E23.10755
G1 X109.725 Y90.275 E23.50843
G1 X109.725 Y109.650 E23.90775
G1 X109.242 Y109.596 F7800.000
G1 Z3.350 F7800.000
G1 X109.275 Y109.275 F7800.000
G1 F1800
G1 X90.725 Y109.275 E24.29007
G1 X90.725 Y90.725 E24.67239
G1 X109.275 Y90.725 E25.05472
G1 X109.275 Y109.200 E25.43549
G1 X109.404 Y109.758 F7800.000
G1 X109.725 Y109.725 F7800.000
G1 F1800
G1 X90.275 Y109.725 E25.83636
G1 X90.275 Y90.275 E26.23723
G1 X109.725 Y90.275 E26.63810
G1 X109.725 Y109.650 E27.03743
G1 X109.242 Y109.596 F7800.000
G1 Z3.650 F7800.000
G1 X109.275 Y109.275 F7800.000
G1 F1800
G1 X90.725 Y109.275 E27.41975
G1 X90.725 Y90.725 E27.80207
G1 X109.275 Y90.725 E28.18439
G1 X109.275 Y109.200 E28.56517
G1 X109.404 Y109.758 F7800.000
G1 X109.725 Y109.725 F7800.000
G1 F1800
G1 X90.275 Y109.725 E28.96604
G1 X90.275 Y90.275 E29.36691
G1 X109.725 Y90.275 E29.76778
G1 X109.725 Y109.650 E30.16711
G1 X109.242 Y109.596 F7800.000
G1 Z3.950 F7800.000
G1 X109.275 Y109.275 F7800.000
G1 F1800
G1 X90.725 Y109.275 E30.54943
G1 X90.725 Y90.725 E30.93175
G1 X109.275 Y90.725 E31.31407
G1 X109.275 Y109.200 E31.69485
G1 X109.404 Y109.758 F7800.000
G1 X109.725 Y109.725 F7800.000
G1 F1800
G1 X90.275 Y109.725 E32.09572
G1 X90.275 Y90.275 E32.49659
G1 X109.725 Y90.275 E32.89746
G1 X109.725 Y109.650 E33.29679
G1 X109.242 Y109.596 F7800.000
G1 Z4.250 F7800.000
G1 X109.275 Y109.275 F7800.000
G1 F1800
G1 X90.725 Y109.275 E33.67911
G1 X90.725 Y90.725 E34.06143
G1 X109.275 Y90.725 E34.44375
G1 X109.275 Y109.200 E34.82453
G1 X109.404 Y109.758 F7800.000
G1 X109.725 Y109.725 F7800.000
G1 F1800
G1 X90.275 Y109.725 E35.22540
G1 X90.275 Y90.275 E35.62627
G1 X109.725 Y90.275 E36.02714
G1 X109.725 Y109.650 E36.42647
G1 X109.242 Y109.596 F7800.000
G1 Z4.550 F7800.000
G1 X109.275 Y109.275 F7800.000
G1 F1800
G1 X90.725 Y109.275 E36.80879
G1 X90.725 Y90.725 E37.19111
G1 X109.275 Y90.725 E37.57343
G1 X109.275 Y109.200 E37.95421
G1 X109.404 Y109.758 F7800.000
G1 X109.725 Y109.725 F7800.000
G1 F1800
G1 X90.275 Y109.725 E38.35508
G1 X90.275 Y90.275 E38.75595
G1 X109.725 Y90.275 E39.15682
G1 X109.725 Y109.650 E39.55614
G1 X109.242 Y109.596 F7800.000
G1 Z4.850 F7800.000
G1 X109.275 Y109.275 F7800.000
G1 F1800
G1 X90.725 Y109.275 E39.93847
G1 X90.725 Y90.725 E40.32079
G1 X109.275 Y90.725 E40.70311
G1 X109.275 Y109.200 E41.08388
G1 X109.404 Y109.758 F7800.000
G1 X109.725 Y109.725 F7800.000
G1 F1800
G1 X90.275 Y109.725 E41.48476
G1 X90.275 Y90.275 E41.88563
G1 X109.725 Y90.275 E42.28650
G1 X109.725 Y109.650 E42.68582
G1 X109.242 Y109.596 F7800.000
G1 Z5.150 F7800.000
G1 X109.275 Y109.275 F7800.000
G1 F1800
G1 X90.725 Y109.275 E43.06814
G1 X90.725 Y90.725 E43.45047
G1 X109.275 Y90.725 E43.83279
G1 X109.275 Y109.200 E44.21356
G1 X109.404 Y109.758 F7800.000
G1 X109.725 Y109.725 F7800.000
G1 F1800
G1 X90.275 Y109.725 E44.61443
G1 X90.275 Y90.275 E45.01531
G1 X109.725 Y90.275 E45.41618
G1 X109.725 Y109.650 E45.81550
G1 X109.242 Y109.596 F7800.000
G1 Z5.450 F7800.000
G1 X109.275 Y109.275 F7800.000
G1 F1800
G1 X90.725 Y109.275 E46.19782
G1 X90.725 Y90.725 E46.58014
G1 X109.275 Y90.725 E46.96247
G1 X109.275 Y109.200 E47.34324
G1 X109.404 Y109.758 F7800.000
G1 X109.725 Y109.725 F7800.000
G1 F1800
G1 X90.275 Y109.725 E47.74411
G1 X90.275 Y90.275 E48.14498
G1 X109.725 Y90.275 E48.54585
G1 X109.725 Y109.650 E48.94518
G1 X109.242 Y109.596 F7800.000
G1 Z5.750 F7800.000
G1 X109.275 Y109.275 F7800.000
G1 F1800
G1 X90.725 Y109.275 E49.32750
G1 X90.725 Y90.725 E49.70982
G1 X109.275 Y90.725 E50.09214
G1 X109.275 Y109.200 E50.47292
G1 X109.404 Y109.758 F7800.000
